(www.thuijzer.nl/image2gcode)
(2019-01-21 21:32:38)
(bit size: 1mm)
(x size: 100mm)
(max z: 10mm)
1 for instruct
8 whole number
7 decimal
G21 (Programming in millimeters)
G90 (Absolute programming)
G92 X0 Y0 Z10 (Tell the machine it is at 0, 0, 10)
G00 X0 Y-0.5 Z10 (Starting position)
G01 X0.7481389578 Y-0.5 Z7.137254902 F100000
G01 X0.9962779156 Y-0.5 Z7.137254902 F100000
G01 X1.2444168734 Y-0.5 Z7.2549019608 F100000
G01 X2.2369727047 Y-0.5 Z7.2549019608 F100000
G01 X2.4851116625 Y-0.5 Z7.0980392157 F100000
G01 X2.7332506203 Y-0.5 Z7.3725490196 F100000
G01 X3.7258064516 Y-0.5 Z7.3725490196 F100000
G01 X3.9739454094 Y-0.5 Z7.2156862745 F100000
G01 X4.2220843672 Y-0.5 Z7.6862745098 F100000
G01 X5.2146401985 Y-0.5 Z7.6862745098 F100000
G01 X5.4627791563 Y-0.5 Z7.568627451 F100000
G01 X5.959057072 Y-0.5 Z7.568627451 F100000
G01 X6.2071960298 Y-0.5 Z7.5294117647 F100000
G01 X6.4553349876 Y-0.5 Z7.5294117647 F100000
G01 X6.7034739454 Y-0.5 Z7.1764705882 F100000
G01 X6.9516129032 Y-0.5 Z7.137254902 F100000
G01 X7.199751861 Y-0.5 Z7.1764705882 F100000
G01 X7.4478908189 Y-0.5 Z7.568627451 F100000
G01 X8.1923076923 Y-0.5 Z7.568627451 F100000
G01 X8.4404466501 Y-0.5 Z8.1568627451 F100000
G01 X9.4330024814 Y-0.5 Z8.1568627451 F100000
G01 X9.6811414392 Y-0.5 Z7.6078431373 F100000
G01 X9.929280397 Y-0.5 Z7.6078431373 F100000
G01 X10.1774193548 Y-0.5 Z7.4509803922 F100000
G01 X11.1699751861 Y-0.5 Z7.4509803922 F100000
G01 X11.4181141439 Y-0.5 Z8.3529411765 F100000
G01 X12.4106699752 Y-0.5 Z8.3529411765 F100000
G01 X12.658808933 Y-0.5 Z7.9215686275 F100000
G01 X13.1550868486 Y-0.5 Z7.9215686275 F100000
G01 X13.4032258065 Y-0.5 Z8.1176470588 F100000
G01 X14.3957816377 Y-0.5 Z8.1176470588 F100000
G01 X14.6439205955 Y-0.5 Z7.8431372549 F100000
G01 X14.8920595533 Y-0.5 Z7.5294117647 F100000
G01 X17.1253101737 Y-0.5 Z7.5294117647 F100000
G01 X17.3734491315 Y-0.5 Z7.4509803922 F100000
G01 X17.6215880893 Y-0.5 Z7.9607843137 F100000
G01 X18.6141439206 Y-0.5 Z7.9607843137 F100000
G01 X18.8622828784 Y-0.5 Z7.8823529412 F100000
G01 X19.358560794 Y-0.5 Z7.8823529412 F100000
G01 X19.6066997519 Y-0.5 Z7.7647058824 F100000
G01 X20.1029776675 Y-0.5 Z7.7647058824 F100000
G01 X20.3511166253 Y-0.5 Z7.8431372549 F100000
G01 X21.0955334988 Y-0.5 Z7.8431372549 F100000
G01 X21.3436724566 Y-0.5 Z7.8823529412 F100000
G01 X21.5918114144 Y-0.5 Z7.8823529412 F100000
G01 X21.8399503722 Y-0.5 Z8.0784313725 F100000
G01 X22.8325062035 Y-0.5 Z8.0784313725 F100000
G01 X23.0806451613 Y-0.5 Z7.8039215686 F100000
G01 X23.3287841191 Y-0.5 Z7.8039215686 F100000
G01 X23.5769230769 Y-0.5 Z8.0392156863 F100000
G01 X24.5694789082 Y-0.5 Z8.0392156863 F100000
G01 X24.817617866 Y-0.5 Z7.8823529412 F100000
G01 X25.0657568238 Y-0.5 Z7.8431372549 F100000
G01 X25.3138957816 Y-0.5 Z7.7254901961 F100000
G01 X25.5620347395 Y-0.5 Z7.7254901961 F100000
G01 X25.8101736973 Y-0.5 Z8.0392156863 F100000
G01 X26.8027295285 Y-0.5 Z8.0392156863 F100000
G01 X27.0508684864 Y-0.5 Z7.9215686275 F100000
G01 X27.7952853598 Y-0.5 Z7.9215686275 F100000
G01 X28.0434243176 Y-0.5 Z7.8823529412 F100000
G01 X29.0359801489 Y-0.5 Z7.8823529412 F100000
G01 X29.2841191067 Y-0.5 Z8.1568627451 F100000
G01 X30.276674938 Y-0.5 Z8.1568627451 F100000
G01 X30.5248138958 Y-0.5 Z7.9215686275 F100000
G01 X32.0136476427 Y-0.5 Z7.9215686275 F100000
G01 X32.2617866005 Y-0.5 Z7.8823529412 F100000
G01 X32.5099255583 Y-0.5 Z7.9607843137 F100000
G01 X33.0062034739 Y-0.5 Z7.9607843137 F100000
G01 X33.2543424318 Y-0.5 Z8.0392156863 F100000
G01 X33.9987593052 Y-0.5 Z8.0392156863 F100000
G01 X34.246898263 Y-0.5 Z8.1176470588 F100000
G01 X35.2394540943 Y-0.5 Z8.1176470588 F100000
G01 X35.4875930521 Y-0.5 Z7.8823529412 F100000
G01 X35.7357320099 Y-0.5 Z8.0392156863 F100000
G01 X36.4801488834 Y-0.5 Z8.0392156863 F100000
G01 X36.7282878412 Y-0.5 Z8.1568627451 F100000
G01 X37.7208436725 Y-0.5 Z8.1568627451 F100000
G01 X37.9689826303 Y-0.5 Z7.8823529412 F100000
G01 X38.2171215881 Y-0.5 Z8.1568627451 F100000
G01 X39.2096774194 Y-0.5 Z8.1568627451 F100000
G01 X39.4578163772 Y-0.5 Z8.2352941176 F100000
G01 X40.4503722084 Y-0.5 Z8.2352941176 F100000
G01 X40.6985111663 Y-0.5 Z8 F100000
G01 X40.9466501241 Y-0.5 Z7.7254901961 F100000
G01 X41.1947890819 Y-0.5 Z8.2352941176 F100000
G01 X42.1873449132 Y-0.5 Z8.2352941176 F100000
G01 X42.435483871 Y-0.5 Z8.0392156863 F100000
G01 X42.6836228288 Y-0.5 Z8.0784313725 F100000
G01 X43.67617866 Y-0.5 Z8.0784313725 F100000
G01 X43.9243176179 Y-0.5 Z8.431372549 F100000
G01 X44.1724565757 Y-0.5 Z8.4705882353 F100000
G01 X45.1650124069 Y-0.5 Z8.4705882353 F100000
G01 X45.4131513648 Y-0.5 Z8.1176470588 F100000
G01 X45.6612903226 Y-0.5 Z8.1176470588 F100000
G01 X45.9094292804 Y-0.5 Z8.1568627451 F100000
G01 X46.6538461538 Y-0.5 Z8.1568627451 F100000
G01 X46.9019851117 Y-0.5 Z8.3529411765 F100000
G01 X47.8945409429 Y-0.5 Z8.3529411765 F100000
G01 X48.1426799007 Y-0.5 Z8.2352941176 F100000
G01 X49.6315136476 Y-0.5 Z8.2352941176 F100000
G01 X49.8796526055 Y-0.5 Z8.1176470588 F100000
G01 X50.1277915633 Y-0.5 Z8.3529411765 F100000
G01 X50.8722084367 Y-0.5 Z8.3529411765 F100000
G01 X51.1203473945 Y-0.5 Z8.431372549 F100000
G01 X52.1129032258 Y-0.5 Z8.431372549 F100000
G01 X52.3610421836 Y-0.5 Z8.3529411765 F100000
G01 X52.6091811414 Y-0.5 Z8.7058823529 F100000
G01 X53.6017369727 Y-0.5 Z8.7058823529 F100000
G01 X53.8498759305 Y-0.5 Z8.2745098039 F100000
G01 X54.0980148883 Y-0.5 Z8.5098039216 F100000
G01 X55.0905707196 Y-0.5 Z8.5098039216 F100000
G01 X55.3387096774 Y-0.5 Z8.4705882353 F100000
G01 X56.0831265509 Y-0.5 Z8.4705882353 F100000
G01 X56.3312655087 Y-0.5 Z8.431372549 F100000
G01 X56.8275434243 Y-0.5 Z8.431372549 F100000
G01 X57.0756823821 Y-0.5 Z8.5882352941 F100000
G01 X58.0682382134 Y-0.5 Z8.5882352941 F100000
G01 X58.3163771712 Y-0.5 Z8.5490196078 F100000
G01 X58.564516129 Y-0.5 Z8.4705882353 F100000
G01 X60.3014888337 Y-0.5 Z8.4705882353 F100000
G01 X60.5496277916 Y-0.5 Z8.7450980392 F100000
G01 X62.5347394541 Y-0.5 Z8.7450980392 F100000
G01 X62.7828784119 Y-0.5 Z8.5882352941 F100000
G01 X63.0310173697 Y-0.5 Z8.7058823529 F100000
G01 X64.023573201 Y-0.5 Z8.7058823529 F100000
G01 X64.2717121588 Y-0.5 Z8.6274509804 F100000
G01 X64.7679900744 Y-0.5 Z8.6274509804 F100000
G01 X65.0161290323 Y-0.5 Z8.6666666667 F100000
G01 X66.753101737 Y-0.5 Z8.6666666667 F100000
G01 X67.0012406948 Y-0.5 Z8.9411764706 F100000
G01 X67.9937965261 Y-0.5 Z8.9411764706 F100000
G01 X68.2419354839 Y-0.5 Z8.7058823529 F100000
G01 X68.4900744417 Y-0.5 Z8.7058823529 F100000
G01 X68.7382133995 Y-0.5 Z8.7843137255 F100000
G01 X68.9863523573 Y-0.5 Z8.9411764706 F100000
G01 X69.482630273 Y-0.5 Z8.9411764706 F100000
G01 X69.7307692308 Y-0.5 Z9.137254902 F100000
G01 X70.723325062 Y-0.5 Z9.137254902 F100000
G01 X70.9714640199 Y-0.5 Z9.0196078431 F100000
G01 X71.4677419355 Y-0.5 Z9.0196078431 F100000
G01 X71.7158808933 Y-0.5 Z8.9411764706 F100000
G01 X71.9640198511 Y-0.5 Z8.862745098 F100000
G01 X72.2121588089 Y-0.5 Z8.862745098 F100000
G01 X72.4602977667 Y-0.5 Z8.8235294118 F100000
G01 X72.9565756824 Y-0.5 Z8.8235294118 F100000
G01 X73.2047146402 Y-0.5 Z8.9019607843 F100000
G01 X74.1972704715 Y-0.5 Z8.9019607843 F100000
G01 X74.4454094293 Y-0.5 Z8.862745098 F100000
G01 X75.1898263027 Y-0.5 Z8.862745098 F100000
G01 X75.4379652605 Y-0.5 Z8.7843137255 F100000
G01 X75.6861042184 Y-0.5 Z8.8235294118 F100000
G01 X75.9342431762 Y-0.5 Z8.9019607843 F100000
G01 X76.9267990074 Y-0.5 Z8.9019607843 F100000
G01 X77.1749379653 Y-0.5 Z8.9411764706 F100000
G01 X77.6712158809 Y-0.5 Z8.9411764706 F100000
G01 X77.9193548387 Y-0.5 Z8.9803921569 F100000
G01 X78.6637717122 Y-0.5 Z8.9803921569 F100000
G01 X78.91191067 Y-0.5 Z9.0980392157 F100000
G01 X80.1526054591 Y-0.5 Z9.0980392157 F100000
G01 X80.4007444169 Y-0.5 Z9.2549019608 F100000
G01 X81.641439206 Y-0.5 Z9.2549019608 F100000
G01 X81.8895781638 Y-0.5 Z9.0588235294 F100000
G01 X82.1377171216 Y-0.5 Z9.0980392157 F100000
G01 X82.3858560794 Y-0.5 Z9.137254902 F100000
G01 X82.6339950372 Y-0.5 Z9.137254902 F100000
G01 X82.882133995 Y-0.5 Z9.1764705882 F100000
G01 X83.1302729529 Y-0.5 Z9.1764705882 F100000
G01 X83.3784119107 Y-0.5 Z9.2941176471 F100000
G01 X84.3709677419 Y-0.5 Z9.2941176471 F100000
G01 X84.6191066998 Y-0.5 Z9.2549019608 F100000
G01 X84.8672456576 Y-0.5 Z9.2941176471 F100000
G01 X86.1079404467 Y-0.5 Z9.2941176471 F100000
G01 X86.3560794045 Y-0.5 Z9.2549019608 F100000
G01 X86.6042183623 Y-0.5 Z9.3333333333 F100000
G01 X87.5967741935 Y-0.5 Z9.3333333333 F100000
G01 X87.8449131514 Y-0.5 Z9.2941176471 F100000
G01 X88.341191067 Y-0.5 Z9.2941176471 F100000
G01 X88.5893300248 Y-0.5 Z9.137254902 F100000
G01 X88.8374689826 Y-0.5 Z9.0980392157 F100000
G01 X89.0856079404 Y-0.5 Z9.2941176471 F100000
G01 X90.0781637717 Y-0.5 Z9.2941176471 F100000
G01 X90.3263027295 Y-0.5 Z9.2156862745 F100000
G01 X91.3188585608 Y-0.5 Z9.2156862745 F100000
G01 X91.5669975186 Y-0.5 Z9.0980392157 F100000
G01 X91.8151364764 Y-0.5 Z9.0588235294 F100000
G01 X93.0558312655 Y-0.5 Z9.0588235294 F100000
G01 X93.3039702233 Y-0.5 Z9.0980392157 F100000
G01 X94.2965260546 Y-0.5 Z9.0980392157 F100000
G01 X94.5446650124 Y-0.5 Z9.0196078431 F100000
G01 X94.7928039702 Y-0.5 Z8.9803921569 F100000
G01 X95.040942928 Y-0.5 Z8.9803921569 F100000
G01 X95.2890818859 Y-0.5 Z8.9411764706 F100000
G01 X95.5372208437 Y-0.5 Z8.8235294118 F100000
G01 X95.7853598015 Y-0.5 Z8.7450980392 F100000
G01 X96.0334987593 Y-0.5 Z8.7058823529 F100000
G01 X96.5297766749 Y-0.5 Z8.7058823529 F100000
G01 X96.7779156328 Y-0.5 Z8.6666666667 F100000
G01 X97.0260545906 Y-0.5 Z8.5882352941 F100000
G01 X97.770471464 Y-0.5 Z8.5882352941 F100000
G01 X98.0186104218 Y-0.5 Z8.5490196078 F100000
G01 X98.2667493797 Y-0.5 Z8.5098039216 F100000
G01 X98.5148883375 Y-0.5 Z8.5098039216 F100000
G01 X98.7630272953 Y-0.5 Z8.3921568627 F100000
G01 X99.5074441687 Y-0.5 Z8.3921568627 F100000
G01 X99.5074441687 Y-0.7481389578 Z8.2745098039 F100000
G01 X99.5074441687 Y-0.9962779156 Z8.1568627451 F100000
G01 X99.5074441687 Y-1.2444168734 Z8.1568627451 F100000
G01 X99.2593052109 Y-1.2444168734 Z8.1176470588 F100000
G01 X99.0111662531 Y-1.2444168734 Z8.1960784314 F100000
G01 X98.7630272953 Y-1.2444168734 Z8.3137254902 F100000
G01 X98.2667493797 Y-1.2444168734 Z8.3137254902 F100000
G01 X98.0186104218 Y-1.2444168734 Z8.3921568627 F100000
G01 X97.770471464 Y-1.2444168734 Z8.5098039216 F100000
G01 X97.5223325062 Y-1.2444168734 Z8.5490196078 F100000
G01 X97.0260545906 Y-1.2444168734 Z8.5490196078 F100000
G01 X96.7779156328 Y-1.2444168734 Z8.6666666667 F100000
G01 X96.0334987593 Y-1.2444168734 Z8.6666666667 F100000
G01 X95.7853598015 Y-1.2444168734 Z8.7450980392 F100000
G01 X95.5372208437 Y-1.2444168734 Z8.8235294118 F100000
G01 X95.2890818859 Y-1.2444168734 Z8.8235294118 F100000
G01 X95.040942928 Y-1.2444168734 Z8.9019607843 F100000
G01 X94.7928039702 Y-1.2444168734 Z8.9411764706 F100000
G01 X93.800248139 Y-1.2444168734 Z8.9411764706 F100000
G01 X93.5521091811 Y-1.2444168734 Z8.9803921569 F100000
G01 X93.0558312655 Y-1.2444168734 Z8.9803921569 F100000
G01 X92.8076923077 Y-1.2444168734 Z9.0196078431 F100000
G01 X91.8151364764 Y-1.2444168734 Z9.0196078431 F100000
G01 X91.5669975186 Y-1.2444168734 Z9.2156862745 F100000
G01 X90.0781637717 Y-1.2444168734 Z9.2156862745 F100000
G01 X89.8300248139 Y-1.2444168734 Z9.2549019608 F100000
G01 X88.8374689826 Y-1.2444168734 Z9.2549019608 F100000
G01 X88.5893300248 Y-1.2444168734 Z9.137254902 F100000
G01 X88.341191067 Y-1.2444168734 Z9.137254902 F100000
G01 X88.0930521092 Y-1.2444168734 Z9.1764705882 F100000
G01 X87.8449131514 Y-1.2444168734 Z9.2156862745 F100000
G01 X87.5967741935 Y-1.2444168734 Z9.3333333333 F100000
G01 X86.6042183623 Y-1.2444168734 Z9.3333333333 F100000
G01 X86.3560794045 Y-1.2444168734 Z9.2941176471 F100000
G01 X86.1079404467 Y-1.2444168734 Z9.137254902 F100000
G01 X85.8598014888 Y-1.2444168734 Z9.137254902 F100000
G01 X85.611662531 Y-1.2444168734 Z9.1764705882 F100000
G01 X85.3635235732 Y-1.2444168734 Z9.2549019608 F100000
G01 X84.6191066998 Y-1.2444168734 Z9.2549019608 F100000
G01 X84.3709677419 Y-1.2444168734 Z9.2941176471 F100000
G01 X84.1228287841 Y-1.2444168734 Z9.2941176471 F100000
G01 X83.8746898263 Y-1.2444168734 Z9.3725490196 F100000
G01 X82.882133995 Y-1.2444168734 Z9.3725490196 F100000
G01 X82.6339950372 Y-1.2444168734 Z9.0588235294 F100000
G01 X81.3933002481 Y-1.2444168734 Z9.0588235294 F100000
G01 X81.1451612903 Y-1.2444168734 Z9.137254902 F100000
G01 X80.1526054591 Y-1.2444168734 Z9.137254902 F100000
G01 X79.9044665012 Y-1.2444168734 Z9.0980392157 F100000
G01 X78.91191067 Y-1.2444168734 Z9.0980392157 F100000
G01 X78.6637717122 Y-1.2444168734 Z9.0196078431 F100000
G01 X78.4156327543 Y-1.2444168734 Z9.0196078431 F100000
G01 X78.1674937965 Y-1.2444168734 Z8.9411764706 F100000
G01 X77.1749379653 Y-1.2444168734 Z8.9411764706 F100000
G01 X76.9267990074 Y-1.2444168734 Z8.862745098 F100000
G01 X76.6786600496 Y-1.2444168734 Z8.862745098 F100000
G01 X76.4305210918 Y-1.2444168734 Z8.7843137255 F100000
G01 X76.182382134 Y-1.2444168734 Z8.7450980392 F100000
G01 X75.9342431762 Y-1.2444168734 Z8.7843137255 F100000
G01 X74.9416873449 Y-1.2444168734 Z8.7843137255 F100000
G01 X74.6935483871 Y-1.2444168734 Z8.7450980392 F100000
G01 X74.1972704715 Y-1.2444168734 Z8.7450980392 F100000
G01 X73.9491315136 Y-1.2444168734 Z8.8235294118 F100000
G01 X71.9640198511 Y-1.2444168734 Z8.8235294118 F100000
G01 X71.7158808933 Y-1.2444168734 Z8.9411764706 F100000
G01 X70.723325062 Y-1.2444168734 Z8.9411764706 F100000
G01 X70.4751861042 Y-1.2444168734 Z8.7843137255 F100000
G01 X70.2270471464 Y-1.2444168734 Z8.8235294118 F100000
G01 X69.9789081886 Y-1.2444168734 Z8.9411764706 F100000
G01 X68.9863523573 Y-1.2444168734 Z8.9411764706 F100000
G01 X68.7382133995 Y-1.2444168734 Z8.7843137255 F100000
G01 X68.4900744417 Y-1.2444168734 Z8.6666666667 F100000
G01 X68.2419354839 Y-1.2444168734 Z8.6666666667 F100000
G01 X67.9937965261 Y-1.2444168734 Z8.7450980392 F100000
G01 X67.0012406948 Y-1.2444168734 Z8.7450980392 F100000
G01 X66.753101737 Y-1.2444168734 Z8.6666666667 F100000
G01 X64.7679900744 Y-1.2444168734 Z8.6666666667 F100000
G01 X64.5198511166 Y-1.2444168734 Z8.5882352941 F100000
G01 X63.0310173697 Y-1.2444168734 Z8.5882352941 F100000
G01 X62.7828784119 Y-1.2444168734 Z8.4705882353 F100000
G01 X62.5347394541 Y-1.2444168734 Z8.5490196078 F100000
G01 X61.5421836228 Y-1.2444168734 Z8.5490196078 F100000
G01 X61.294044665 Y-1.2444168734 Z8.5098039216 F100000
G01 X60.7977667494 Y-1.2444168734 Z8.5098039216 F100000
G01 X60.5496277916 Y-1.2444168734 Z8.4705882353 F100000
G01 X60.0533498759 Y-1.2444168734 Z8.4705882353 F100000
G01 X59.8052109181 Y-1.2444168734 Z8.3921568627 F100000
G01 X59.0607940447 Y-1.2444168734 Z8.3921568627 F100000
G01 X58.8126550868 Y-1.2444168734 Z8.5490196078 F100000
G01 X57.8200992556 Y-1.2444168734 Z8.5490196078 F100000
G01 X57.5719602978 Y-1.2444168734 Z8.3529411765 F100000
G01 X57.32382134 Y-1.2444168734 Z8.2745098039 F100000
G01 X56.5794044665 Y-1.2444168734 Z8.2745098039 F100000
G01 X56.3312655087 Y-1.2444168734 Z8.2352941176 F100000
G01 X54.0980148883 Y-1.2444168734 Z8.2352941176 F100000
G01 X53.8498759305 Y-1.2444168734 Z8.2745098039 F100000
G01 X53.6017369727 Y-1.2444168734 Z8.5098039216 F100000
G01 X52.6091811414 Y-1.2444168734 Z8.5098039216 F100000
G01 X52.3610421836 Y-1.2444168734 Z8.3529411765 F100000
G01 X51.864764268 Y-1.2444168734 Z8.3529411765 F100000
G01 X51.6166253102 Y-1.2444168734 Z8.2352941176 F100000
G01 X50.3759305211 Y-1.2444168734 Z8.2352941176 F100000
G01 X50.1277915633 Y-1.2444168734 Z8.0784313725 F100000
G01 X49.8796526055 Y-1.2444168734 Z8 F100000
G01 X49.6315136476 Y-1.2444168734 Z7.9607843137 F100000
G01 X49.3833746898 Y-1.2444168734 Z8.3921568627 F100000
G01 X48.3908188586 Y-1.2444168734 Z8.3921568627 F100000
G01 X48.1426799007 Y-1.2444168734 Z8.2352941176 F100000
G01 X47.8945409429 Y-1.2444168734 Z8.5098039216 F100000
G01 X46.9019851117 Y-1.2444168734 Z8.5098039216 F100000
G01 X46.6538461538 Y-1.2444168734 Z8.1568627451 F100000
G01 X46.405707196 Y-1.2444168734 Z8.1568627451 F100000
G01 X46.1575682382 Y-1.2444168734 Z8.3137254902 F100000
G01 X45.1650124069 Y-1.2444168734 Z8.3137254902 F100000
G01 X44.9168734491 Y-1.2444168734 Z8.1176470588 F100000
G01 X43.9243176179 Y-1.2444168734 Z8.1176470588 F100000
G01 X43.67617866 Y-1.2444168734 Z8.2352941176 F100000
G01 X42.6836228288 Y-1.2444168734 Z8.2352941176 F100000
G01 X42.435483871 Y-1.2444168734 Z8.0392156863 F100000
G01 X42.1873449132 Y-1.2444168734 Z8.2352941176 F100000
G01 X41.9392059553 Y-1.2444168734 Z8.2352941176 F100000
G01 X41.6910669975 Y-1.2444168734 Z8.3137254902 F100000
G01 X40.6985111663 Y-1.2444168734 Z8.3137254902 F100000
G01 X40.4503722084 Y-1.2444168734 Z7.9607843137 F100000
G01 X40.2022332506 Y-1.2444168734 Z7.9215686275 F100000
G01 X39.9540942928 Y-1.2444168734 Z7.8431372549 F100000
G01 X39.705955335 Y-1.2444168734 Z7.8431372549 F100000
G01 X39.4578163772 Y-1.2444168734 Z8.1176470588 F100000
G01 X39.2096774194 Y-1.2444168734 Z8.1568627451 F100000
G01 X38.2171215881 Y-1.2444168734 Z8.1568627451 F100000
G01 X37.9689826303 Y-1.2444168734 Z8 F100000
G01 X37.7208436725 Y-1.2444168734 Z8.1960784314 F100000
G01 X36.7282878412 Y-1.2444168734 Z8.1960784314 F100000
G01 X36.4801488834 Y-1.2444168734 Z7.8823529412 F100000
G01 X36.2320099256 Y-1.2444168734 Z7.8823529412 F100000
G01 X35.9838709677 Y-1.2444168734 Z7.8039215686 F100000
G01 X35.7357320099 Y-1.2444168734 Z7.8039215686 F100000
G01 X35.4875930521 Y-1.2444168734 Z7.9607843137 F100000
G01 X35.2394540943 Y-1.2444168734 Z8.0392156863 F100000
G01 X33.0062034739 Y-1.2444168734 Z8.0392156863 F100000
G01 X32.7580645161 Y-1.2444168734 Z7.9607843137 F100000
G01 X32.2617866005 Y-1.2444168734 Z7.9607843137 F100000
G01 X32.0136476427 Y-1.2444168734 Z7.8431372549 F100000
G01 X31.7655086849 Y-1.2444168734 Z7.8823529412 F100000
G01 X30.7729528536 Y-1.2444168734 Z7.8823529412 F100000
G01 X30.5248138958 Y-1.2444168734 Z7.7647058824 F100000
G01 X29.7803970223 Y-1.2444168734 Z7.7647058824 F100000
G01 X29.5322580645 Y-1.2444168734 Z7.8823529412 F100000
G01 X28.5397022333 Y-1.2444168734 Z7.8823529412 F100000
G01 X28.2915632754 Y-1.2444168734 Z7.7254901961 F100000
G01 X28.0434243176 Y-1.2444168734 Z8 F100000
G01 X27.0508684864 Y-1.2444168734 Z8 F100000
G01 X26.8027295285 Y-1.2444168734 Z7.8431372549 F100000
G01 X26.0583126551 Y-1.2444168734 Z7.8431372549 F100000
G01 X25.8101736973 Y-1.2444168734 Z7.7254901961 F100000
G01 X25.5620347395 Y-1.2444168734 Z7.7254901961 F100000
G01 X25.3138957816 Y-1.2444168734 Z7.8431372549 F100000
G01 X25.0657568238 Y-1.2444168734 Z7.8823529412 F100000
G01 X24.0732009926 Y-1.2444168734 Z7.8823529412 F100000
G01 X23.8250620347 Y-1.2444168734 Z7.6470588235 F100000
G01 X23.3287841191 Y-1.2444168734 Z7.6470588235 F100000
G01 X23.0806451613 Y-1.2444168734 Z7.7254901961 F100000
G01 X22.8325062035 Y-1.2444168734 Z7.7254901961 F100000
G01 X22.5843672457 Y-1.2444168734 Z7.8823529412 F100000
G01 X21.5918114144 Y-1.2444168734 Z7.8823529412 F100000
G01 X21.3436724566 Y-1.2444168734 Z7.8431372549 F100000
G01 X20.5992555831 Y-1.2444168734 Z7.8431372549 F100000
G01 X20.3511166253 Y-1.2444168734 Z7.7647058824 F100000
G01 X19.8548387097 Y-1.2444168734 Z7.7647058824 F100000
G01 X19.6066997519 Y-1.2444168734 Z7.4901960784 F100000
G01 X19.358560794 Y-1.2444168734 Z7.8431372549 F100000
G01 X18.3660049628 Y-1.2444168734 Z7.8431372549 F100000
G01 X18.117866005 Y-1.2444168734 Z7.4117647059 F100000
G01 X17.8697270471 Y-1.2444168734 Z7.3725490196 F100000
G01 X17.6215880893 Y-1.2444168734 Z7.7254901961 F100000
G01 X17.3734491315 Y-1.2444168734 Z8.0392156863 F100000
G01 X16.3808933002 Y-1.2444168734 Z8.0392156863 F100000
G01 X16.1327543424 Y-1.2444168734 Z7.568627451 F100000
G01 X15.6364764268 Y-1.2444168734 Z7.568627451 F100000
G01 X15.388337469 Y-1.2444168734 Z7.5294117647 F100000
G01 X15.1401985112 Y-1.2444168734 Z7.4901960784 F100000
G01 X14.8920595533 Y-1.2444168734 Z7.4901960784 F100000
G01 X14.6439205955 Y-1.2444168734 Z8.1176470588 F100000
G01 X13.6513647643 Y-1.2444168734 Z8.1176470588 F100000
G01 X13.4032258065 Y-1.2444168734 Z8 F100000
G01 X12.9069478908 Y-1.2444168734 Z8 F100000
G01 X12.658808933 Y-1.2444168734 Z8.2352941176 F100000
G01 X11.6662531017 Y-1.2444168734 Z8.2352941176 F100000
G01 X11.4181141439 Y-1.2444168734 Z7.3333333333 F100000
G01 X10.4255583127 Y-1.2444168734 Z7.3333333333 F100000
G01 X10.1774193548 Y-1.2444168734 Z7.2156862745 F100000
G01 X9.929280397 Y-1.2444168734 Z7.4901960784 F100000
G01 X9.6811414392 Y-1.2444168734 Z8.1568627451 F100000
G01 X8.6885856079 Y-1.2444168734 Z8.1568627451 F100000
G01 X8.4404466501 Y-1.2444168734 Z7.4901960784 F100000
G01 X8.1923076923 Y-1.2444168734 Z7.2549019608 F100000
G01 X7.9441687345 Y-1.2444168734 Z7.2941176471 F100000
G01 X6.9516129032 Y-1.2444168734 Z7.2941176471 F100000
G01 X6.7034739454 Y-1.2444168734 Z7.5294117647 F100000
G01 X6.4553349876 Y-1.2444168734 Z7.5294117647 F100000
G01 X6.2071960298 Y-1.2444168734 Z7.568627451 F100000
G01 X5.7109181141 Y-1.2444168734 Z7.568627451 F100000
G01 X5.4627791563 Y-1.2444168734 Z7.6862745098 F100000
G01 X4.4702233251 Y-1.2444168734 Z7.6862745098 F100000
G01 X4.2220843672 Y-1.2444168734 Z7.4509803922 F100000
G01 X3.7258064516 Y-1.2444168734 Z7.4509803922 F100000
G01 X3.4776674938 Y-1.2444168734 Z7.3725490196 F100000
G01 X2.4851116625 Y-1.2444168734 Z7.3725490196 F100000
G01 X2.2369727047 Y-1.2444168734 Z6.9803921569 F100000
G01 X1.9888337469 Y-1.2444168734 Z7.0588235294 F100000
G01 X1.7406947891 Y-1.2444168734 Z7.0980392157 F100000
G01 X0.5 Y-1.2444168734 Z7.0980392157 F100000
G01 X0.5 Y-1.4925558313 Z7.0196078431 F100000
G01 X0.5 Y-1.7406947891 Z7.0196078431 F100000
G01 X0.5 Y-1.9888337469 Z7.0196078431 F100000
G01 X1.2444168734 Y-1.9888337469 Z7.0196078431 F100000
G01 X1.4925558313 Y-1.9888337469 Z7.0588235294 F100000
G01 X2.2369727047 Y-1.9888337469 Z7.0588235294 F100000
G01 X2.4851116625 Y-1.9888337469 Z7.3725490196 F100000
G01 X3.4776674938 Y-1.9888337469 Z7.3725490196 F100000
G01 X3.7258064516 Y-1.9888337469 Z7.2156862745 F100000
G01 X3.9739454094 Y-1.9888337469 Z7.2156862745 F100000
G01 X4.2220843672 Y-1.9888337469 Z7.3725490196 F100000
G01 X4.4702233251 Y-1.9888337469 Z7.5294117647 F100000
G01 X5.4627791563 Y-1.9888337469 Z7.5294117647 F100000
G01 X5.7109181141 Y-1.9888337469 Z7.3725490196 F100000
G01 X6.4553349876 Y-1.9888337469 Z7.3725490196 F100000
G01 X6.7034739454 Y-1.9888337469 Z7.1764705882 F100000
G01 X6.9516129032 Y-1.9888337469 Z7.4117647059 F100000
G01 X7.9441687345 Y-1.9888337469 Z7.4117647059 F100000
G01 X8.1923076923 Y-1.9888337469 Z7.2941176471 F100000
G01 X8.4404466501 Y-1.9888337469 Z7.4901960784 F100000
G01 X8.6885856079 Y-1.9888337469 Z7.8431372549 F100000
G01 X8.9367245658 Y-1.9888337469 Z8.2352941176 F100000
G01 X9.929280397 Y-1.9888337469 Z8.2352941176 F100000
G01 X10.1774193548 Y-1.9888337469 Z7.3725490196 F100000
G01 X10.4255583127 Y-1.9888337469 Z7.3725490196 F100000
G01 X10.6736972705 Y-1.9888337469 Z7.4117647059 F100000
G01 X11.4181141439 Y-1.9888337469 Z7.4117647059 F100000
G01 X11.6662531017 Y-1.9888337469 Z7.4901960784 F100000
G01 X12.1625310174 Y-1.9888337469 Z7.4901960784 F100000
G01 X12.4106699752 Y-1.9888337469 Z7.568627451 F100000
G01 X12.658808933 Y-1.9888337469 Z7.7647058824 F100000
G01 X13.6513647643 Y-1.9888337469 Z7.7647058824 F100000
G01 X13.8995037221 Y-1.9888337469 Z7.568627451 F100000
G01 X14.8920595533 Y-1.9888337469 Z7.568627451 F100000
G01 X15.1401985112 Y-1.9888337469 Z7.4117647059 F100000
G01 X15.388337469 Y-1.9888337469 Z7.4117647059 F100000
G01 X15.6364764268 Y-1.9888337469 Z7.568627451 F100000
G01 X16.1327543424 Y-1.9888337469 Z7.568627451 F100000
G01 X16.3808933002 Y-1.9888337469 Z8.0392156863 F100000
G01 X17.3734491315 Y-1.9888337469 Z8.0392156863 F100000
G01 X17.6215880893 Y-1.9888337469 Z7.7647058824 F100000
G01 X17.8697270471 Y-1.9888337469 Z7.5294117647 F100000
G01 X18.117866005 Y-1.9888337469 Z7.7647058824 F100000
G01 X18.3660049628 Y-1.9888337469 Z7.8431372549 F100000
G01 X19.358560794 Y-1.9888337469 Z7.8431372549 F100000
G01 X19.6066997519 Y-1.9888337469 Z7.568627451 F100000
G01 X20.8473945409 Y-1.9888337469 Z7.568627451 F100000
G01 X21.0955334988 Y-1.9888337469 Z7.5294117647 F100000
G01 X21.5918114144 Y-1.9888337469 Z7.5294117647 F100000
G01 X21.8399503722 Y-1.9888337469 Z7.4901960784 F100000
G01 X22.3362282878 Y-1.9888337469 Z7.4901960784 F100000
G01 X22.5843672457 Y-1.9888337469 Z7.568627451 F100000
G01 X22.8325062035 Y-1.9888337469 Z7.6470588235 F100000
G01 X23.8250620347 Y-1.9888337469 Z7.6470588235 F100000
G01 X24.0732009926 Y-1.9888337469 Z7.568627451 F100000
G01 X24.3213399504 Y-1.9888337469 Z8.1568627451 F100000
G01 X25.3138957816 Y-1.9888337469 Z8.1568627451 F100000
G01 X25.5620347395 Y-1.9888337469 Z7.7647058824 F100000
G01 X26.5545905707 Y-1.9888337469 Z7.7647058824 F100000
G01 X26.8027295285 Y-1.9888337469 Z7.6078431373 F100000
G01 X27.0508684864 Y-1.9888337469 Z8 F100000
G01 X28.0434243176 Y-1.9888337469 Z8 F100000
G01 X28.2915632754 Y-1.9888337469 Z7.7647058824 F100000
G01 X28.5397022333 Y-1.9888337469 Z8.3921568627 F100000
G01 X29.5322580645 Y-1.9888337469 Z8.3921568627 F100000
G01 X29.7803970223 Y-1.9888337469 Z7.8039215686 F100000
G01 X30.0285359801 Y-1.9888337469 Z7.8823529412 F100000
G01 X31.7655086849 Y-1.9888337469 Z7.8823529412 F100000
G01 X32.0136476427 Y-1.9888337469 Z7.8431372549 F100000
G01 X32.2617866005 Y-1.9888337469 Z7.9607843137 F100000
G01 X32.5099255583 Y-1.9888337469 Z8.2745098039 F100000
G01 X33.5024813896 Y-1.9888337469 Z8.2745098039 F100000
G01 X33.7506203474 Y-1.9888337469 Z8.0392156863 F100000
G01 X33.9987593052 Y-1.9888337469 Z8.0392156863 F100000
G01 X34.246898263 Y-1.9888337469 Z7.9215686275 F100000
G01 X35.2394540943 Y-1.9888337469 Z7.9215686275 F100000
G01 X35.4875930521 Y-1.9888337469 Z8 F100000
G01 X36.4801488834 Y-1.9888337469 Z8 F100000
G01 X36.7282878412 Y-1.9888337469 Z8.1960784314 F100000
G01 X37.7208436725 Y-1.9888337469 Z8.1960784314 F100000
G01 X37.9689826303 Y-1.9888337469 Z7.8823529412 F100000
G01 X38.2171215881 Y-1.9888337469 Z7.8823529412 F100000
G01 X38.4652605459 Y-1.9888337469 Z8.1176470588 F100000
G01 X39.4578163772 Y-1.9888337469 Z8.1176470588 F100000
G01 X39.705955335 Y-1.9888337469 Z7.9607843137 F100000
G01 X40.4503722084 Y-1.9888337469 Z7.9607843137 F100000
G01 X40.6985111663 Y-1.9888337469 Z8.3137254902 F100000
G01 X41.6910669975 Y-1.9888337469 Z8.3137254902 F100000
G01 X41.9392059553 Y-1.9888337469 Z7.9607843137 F100000
G01 X42.1873449132 Y-1.9888337469 Z8.0784313725 F100000
G01 X42.435483871 Y-1.9888337469 Z8.0784313725 F100000
G01 X42.6836228288 Y-1.9888337469 Z8.2352941176 F100000
G01 X43.67617866 Y-1.9888337469 Z8.2352941176 F100000
G01 X43.9243176179 Y-1.9888337469 Z8.1176470588 F100000
G01 X44.4205955335 Y-1.9888337469 Z8.1176470588 F100000
G01 X44.6687344913 Y-1.9888337469 Z8 F100000
G01 X44.9168734491 Y-1.9888337469 Z8.0392156863 F100000
G01 X45.1650124069 Y-1.9888337469 Z8.3137254902 F100000
G01 X46.1575682382 Y-1.9888337469 Z8.3137254902 F100000
G01 X46.405707196 Y-1.9888337469 Z8 F100000
G01 X46.6538461538 Y-1.9888337469 Z8 F100000
G01 X46.9019851117 Y-1.9888337469 Z8.5098039216 F100000
G01 X47.8945409429 Y-1.9888337469 Z8.5098039216 F100000
G01 X48.1426799007 Y-1.9888337469 Z8.2352941176 F100000
G01 X48.3908188586 Y-1.9888337469 Z8.3921568627 F100000
G01 X49.3833746898 Y-1.9888337469 Z8.3921568627 F100000
G01 X49.6315136476 Y-1.9888337469 Z7.9607843137 F100000
G01 X49.8796526055 Y-1.9888337469 Z7.9607843137 F100000
G01 X50.1277915633 Y-1.9888337469 Z8.0784313725 F100000
G01 X50.3759305211 Y-1.9888337469 Z8.2352941176 F100000
G01 X51.3684863524 Y-1.9888337469 Z8.2352941176 F100000
G01 X51.6166253102 Y-1.9888337469 Z8.2745098039 F100000
G01 X53.3535980149 Y-1.9888337469 Z8.2745098039 F100000
G01 X53.6017369727 Y-1.9888337469 Z8.2352941176 F100000
G01 X54.3461538462 Y-1.9888337469 Z8.2352941176 F100000
G01 X54.594292804 Y-1.9888337469 Z8.1960784314 F100000
G01 X54.8424317618 Y-1.9888337469 Z8.1960784314 F100000
G01 X55.0905707196 Y-1.9888337469 Z8.2352941176 F100000
G01 X56.0831265509 Y-1.9888337469 Z8.2352941176 F100000
G01 X56.3312655087 Y-1.9888337469 Z8.1960784314 F100000
G01 X56.8275434243 Y-1.9888337469 Z8.1960784314 F100000
G01 X57.0756823821 Y-1.9888337469 Z8.3529411765 F100000
G01 X57.5719602978 Y-1.9888337469 Z8.3529411765 F100000
G01 X57.8200992556 Y-1.9888337469 Z8.5490196078 F100000
G01 X58.8126550868 Y-1.9888337469 Z8.5490196078 F100000
G01 X59.0607940447 Y-1.9888337469 Z8.3921568627 F100000
G01 X59.8052109181 Y-1.9888337469 Z8.3921568627 F100000
G01 X60.0533498759 Y-1.9888337469 Z8.3137254902 F100000
G01 X60.3014888337 Y-1.9888337469 Z8.3137254902 F100000
G01 X60.5496277916 Y-1.9888337469 Z8.431372549 F100000
G01 X61.7903225806 Y-1.9888337469 Z8.431372549 F100000
G01 X62.0384615385 Y-1.9888337469 Z8.3529411765 F100000
G01 X62.7828784119 Y-1.9888337469 Z8.3529411765 F100000
G01 X63.0310173697 Y-1.9888337469 Z8.5882352941 F100000
G01 X63.2791563275 Y-1.9888337469 Z8.7843137255 F100000
G01 X64.2717121588 Y-1.9888337469 Z8.7843137255 F100000
G01 X64.5198511166 Y-1.9888337469 Z8.5882352941 F100000
G01 X64.7679900744 Y-1.9888337469 Z8.6666666667 F100000
G01 X67.0012406948 Y-1.9888337469 Z8.6666666667 F100000
G01 X67.2493796526 Y-1.9888337469 Z8.6274509804 F100000
G01 X68.2419354839 Y-1.9888337469 Z8.6274509804 F100000
G01 X68.4900744417 Y-1.9888337469 Z8.7843137255 F100000
G01 X69.482630273 Y-1.9888337469 Z8.7843137255 F100000
G01 X69.7307692308 Y-1.9888337469 Z8.862745098 F100000
G01 X70.723325062 Y-1.9888337469 Z8.862745098 F100000
G01 X70.9714640199 Y-1.9888337469 Z8.8235294118 F100000
G01 X71.2196029777 Y-1.9888337469 Z8.8235294118 F100000
G01 X71.4677419355 Y-1.9888337469 Z8.7058823529 F100000
G01 X72.7084367246 Y-1.9888337469 Z8.7058823529 F100000
G01 X72.9565756824 Y-1.9888337469 Z8.7843137255 F100000
G01 X73.7009925558 Y-1.9888337469 Z8.7843137255 F100000
G01 X73.9491315136 Y-1.9888337469 Z8.8235294118 F100000
G01 X74.4454094293 Y-1.9888337469 Z8.8235294118 F100000
G01 X74.6935483871 Y-1.9888337469 Z8.9019607843 F100000
G01 X75.6861042184 Y-1.9888337469 Z8.9019607843 F100000
G01 X75.9342431762 Y-1.9888337469 Z8.8235294118 F100000
G01 X76.182382134 Y-1.9888337469 Z8.8235294118 F100000
G01 X76.4305210918 Y-1.9888337469 Z8.862745098 F100000
G01 X77.9193548387 Y-1.9888337469 Z8.862745098 F100000
G01 X78.1674937965 Y-1.9888337469 Z8.9411764706 F100000
G01 X78.4156327543 Y-1.9888337469 Z9.0196078431 F100000
G01 X80.4007444169 Y-1.9888337469 Z9.0196078431 F100000
G01 X80.6488833747 Y-1.9888337469 Z8.9411764706 F100000
G01 X80.8970223325 Y-1.9888337469 Z8.9411764706 F100000
G01 X81.1451612903 Y-1.9888337469 Z9.0196078431 F100000
G01 X81.3933002481 Y-1.9888337469 Z9.0588235294 F100000
G01 X82.3858560794 Y-1.9888337469 Z9.0588235294 F100000
G01 X82.6339950372 Y-1.9888337469 Z8.9803921569 F100000
G01 X82.882133995 Y-1.9888337469 Z9.3725490196 F100000
G01 X83.8746898263 Y-1.9888337469 Z9.3725490196 F100000
G01 X84.1228287841 Y-1.9888337469 Z9.0196078431 F100000
G01 X84.3709677419 Y-1.9888337469 Z8.7450980392 F100000
G01 X84.6191066998 Y-1.9888337469 Z9.1764705882 F100000
G01 X85.611662531 Y-1.9888337469 Z9.1764705882 F100000
G01 X85.8598014888 Y-1.9888337469 Z9.137254902 F100000
G01 X86.1079404467 Y-1.9888337469 Z9.137254902 F100000
G01 X86.3560794045 Y-1.9888337469 Z9.2941176471 F100000
G01 X87.3486352357 Y-1.9888337469 Z9.2941176471 F100000
G01 X87.5967741935 Y-1.9888337469 Z9.1764705882 F100000
G01 X87.8449131514 Y-1.9888337469 Z9.0980392157 F100000
G01 X88.0930521092 Y-1.9888337469 Z9.137254902 F100000
G01 X88.341191067 Y-1.9888337469 Z9.2156862745 F100000
G01 X88.5893300248 Y-1.9888337469 Z9.2156862745 F100000
G01 X88.8374689826 Y-1.9888337469 Z9.2549019608 F100000
G01 X89.0856079404 Y-1.9888337469 Z9.2549019608 F100000
G01 X89.3337468983 Y-1.9888337469 Z9.2941176471 F100000
G01 X91.5669975186 Y-1.9888337469 Z9.2941176471 F100000
G01 X91.8151364764 Y-1.9888337469 Z9.137254902 F100000
G01 X92.0632754342 Y-1.9888337469 Z9.137254902 F100000
G01 X92.3114143921 Y-1.9888337469 Z9.0196078431 F100000
G01 X92.5595533499 Y-1.9888337469 Z9.0196078431 F100000
G01 X92.8076923077 Y-1.9888337469 Z9.137254902 F100000
G01 X93.800248139 Y-1.9888337469 Z9.137254902 F100000
G01 X94.0483870968 Y-1.9888337469 Z8.9411764706 F100000
G01 X94.5446650124 Y-1.9888337469 Z8.9411764706 F100000
G01 X94.7928039702 Y-1.9888337469 Z8.9019607843 F100000
G01 X95.040942928 Y-1.9888337469 Z8.9019607843 F100000
G01 X95.2890818859 Y-1.9888337469 Z8.7843137255 F100000
G01 X95.5372208437 Y-1.9888337469 Z8.7450980392 F100000
G01 X95.7853598015 Y-1.9888337469 Z8.7450980392 F100000
G01 X96.0334987593 Y-1.9888337469 Z8.6666666667 F100000
G01 X96.2816377171 Y-1.9888337469 Z8.4705882353 F100000
G01 X97.2741935484 Y-1.9888337469 Z8.4705882353 F100000
G01 X97.5223325062 Y-1.9888337469 Z8.431372549 F100000
G01 X97.770471464 Y-1.9888337469 Z8.431372549 F100000
G01 X98.0186104218 Y-1.9888337469 Z8.3137254902 F100000
G01 X98.2667493797 Y-1.9888337469 Z8.1960784314 F100000
G01 X98.5148883375 Y-1.9888337469 Z8.0392156863 F100000
G01 X98.7630272953 Y-1.9888337469 Z8 F100000
G01 X99.5074441687 Y-1.9888337469 Z8 F100000
G01 X99.5074441687 Y-2.2369727047 Z8 F100000
G01 X99.5074441687 Y-2.4851116625 Z7.8039215686 F100000
G01 X99.5074441687 Y-2.7332506203 Z7.8039215686 F100000
G01 X99.2593052109 Y-2.7332506203 Z7.7647058824 F100000
G01 X98.7630272953 Y-2.7332506203 Z7.7647058824 F100000
G01 X98.5148883375 Y-2.7332506203 Z7.9215686275 F100000
G01 X98.2667493797 Y-2.7332506203 Z8.0784313725 F100000
G01 X98.0186104218 Y-2.7332506203 Z8.1568627451 F100000
G01 X97.770471464 Y-2.7332506203 Z8.1960784314 F100000
G01 X97.2741935484 Y-2.7332506203 Z8.1960784314 F100000
G01 X97.0260545906 Y-2.7332506203 Z8.2352941176 F100000
G01 X96.5297766749 Y-2.7332506203 Z8.2352941176 F100000
G01 X96.2816377171 Y-2.7332506203 Z8.3921568627 F100000
G01 X96.0334987593 Y-2.7332506203 Z8.5490196078 F100000
G01 X95.7853598015 Y-2.7332506203 Z8.5490196078 F100000
G01 X95.5372208437 Y-2.7332506203 Z8.8235294118 F100000
G01 X95.2890818859 Y-2.7332506203 Z8.8235294118 F100000
G01 X95.040942928 Y-2.7332506203 Z8.9019607843 F100000
G01 X94.5446650124 Y-2.7332506203 Z8.9019607843 F100000
G01 X94.2965260546 Y-2.7332506203 Z9.0196078431 F100000
G01 X94.0483870968 Y-2.7332506203 Z9.0196078431 F100000
G01 X93.800248139 Y-2.7332506203 Z9.2156862745 F100000
G01 X93.5521091811 Y-2.7332506203 Z9.3725490196 F100000
G01 X92.5595533499 Y-2.7332506203 Z9.3725490196 F100000
G01 X92.3114143921 Y-2.7332506203 Z9.0196078431 F100000
G01 X92.0632754342 Y-2.7332506203 Z9.137254902 F100000
G01 X91.8151364764 Y-2.7332506203 Z9.137254902 F100000
G01 X91.5669975186 Y-2.7332506203 Z9.2941176471 F100000
G01 X90.5744416873 Y-2.7332506203 Z9.2941176471 F100000
G01 X90.3263027295 Y-2.7332506203 Z9.0980392157 F100000
G01 X90.0781637717 Y-2.7332506203 Z9.0196078431 F100000
G01 X89.3337468983 Y-2.7332506203 Z9.0196078431 F100000
G01 X89.0856079404 Y-2.7332506203 Z8.7843137255 F100000
G01 X88.8374689826 Y-2.7332506203 Z8.4705882353 F100000
G01 X88.5893300248 Y-2.7332506203 Z8.4705882353 F100000
G01 X88.341191067 Y-2.7332506203 Z8.3137254902 F100000
G01 X88.0930521092 Y-2.7332506203 Z8.0784313725 F100000
G01 X87.8449131514 Y-2.7332506203 Z7.8431372549 F100000
G01 X87.5967741935 Y-2.7332506203 Z8 F100000
G01 X86.6042183623 Y-2.7332506203 Z8 F100000
G01 X86.3560794045 Y-2.7332506203 Z7.8039215686 F100000
G01 X86.1079404467 Y-2.7332506203 Z7.4901960784 F100000
G01 X85.8598014888 Y-2.7332506203 Z7.0588235294 F100000
G01 X85.611662531 Y-2.7332506203 Z6.6274509804 F100000
G01 X85.3635235732 Y-2.7332506203 Z6.2745098039 F100000
G01 X85.1153846154 Y-2.7332506203 Z5.9607843137 F100000
G01 X84.8672456576 Y-2.7332506203 Z5.8039215686 F100000
G01 X84.6191066998 Y-2.7332506203 Z5.2549019608 F100000
G01 X84.3709677419 Y-2.7332506203 Z5.2156862745 F100000
G01 X84.1228287841 Y-2.7332506203 Z5.0196078431 F100000
G01 X83.8746898263 Y-2.7332506203 Z5.2941176471 F100000
G01 X83.6265508685 Y-2.7332506203 Z5.6470588235 F100000
G01 X83.3784119107 Y-2.7332506203 Z5.8039215686 F100000
G01 X83.1302729529 Y-2.7332506203 Z6.0784313725 F100000
G01 X82.882133995 Y-2.7332506203 Z6.2745098039 F100000
G01 X82.6339950372 Y-2.7332506203 Z6.4705882353 F100000
G01 X82.3858560794 Y-2.7332506203 Z6.7450980392 F100000
G01 X82.1377171216 Y-2.7332506203 Z7.137254902 F100000
G01 X81.8895781638 Y-2.7332506203 Z7.4509803922 F100000
G01 X81.641439206 Y-2.7332506203 Z7.8431372549 F100000
G01 X81.3933002481 Y-2.7332506203 Z7.9607843137 F100000
G01 X81.1451612903 Y-2.7332506203 Z8.0784313725 F100000
G01 X80.8970223325 Y-2.7332506203 Z8.1960784314 F100000
G01 X80.6488833747 Y-2.7332506203 Z8.3529411765 F100000
G01 X80.4007444169 Y-2.7332506203 Z8.431372549 F100000
G01 X79.6563275434 Y-2.7332506203 Z8.431372549 F100000
G01 X79.4081885856 Y-2.7332506203 Z8.6666666667 F100000
G01 X78.6637717122 Y-2.7332506203 Z8.6666666667 F100000
G01 X78.4156327543 Y-2.7332506203 Z8.7058823529 F100000
G01 X78.1674937965 Y-2.7332506203 Z8.7450980392 F100000
G01 X77.6712158809 Y-2.7332506203 Z8.7450980392 F100000
G01 X77.4230769231 Y-2.7332506203 Z8.862745098 F100000
G01 X77.1749379653 Y-2.7332506203 Z8.862745098 F100000
G01 X76.9267990074 Y-2.7332506203 Z8.9019607843 F100000
G01 X74.9416873449 Y-2.7332506203 Z8.9019607843 F100000
G01 X74.6935483871 Y-2.7332506203 Z8.8235294118 F100000
G01 X72.9565756824 Y-2.7332506203 Z8.8235294118 F100000
G01 X72.7084367246 Y-2.7332506203 Z8.6666666667 F100000
G01 X72.2121588089 Y-2.7332506203 Z8.6666666667 F100000
G01 X71.9640198511 Y-2.7332506203 Z8.7058823529 F100000
G01 X70.9714640199 Y-2.7332506203 Z8.7058823529 F100000
G01 X70.723325062 Y-2.7332506203 Z8.8235294118 F100000
G01 X69.7307692308 Y-2.7332506203 Z8.8235294118 F100000
G01 X69.482630273 Y-2.7332506203 Z8.7843137255 F100000
G01 X68.4900744417 Y-2.7332506203 Z8.7843137255 F100000
G01 X68.2419354839 Y-2.7332506203 Z8.6666666667 F100000
G01 X67.9937965261 Y-2.7332506203 Z8.6666666667 F100000
G01 X67.7456575682 Y-2.7332506203 Z8.6274509804 F100000
G01 X67.2493796526 Y-2.7332506203 Z8.6274509804 F100000
G01 X67.0012406948 Y-2.7332506203 Z8.6666666667 F100000
G01 X65.7605459057 Y-2.7332506203 Z8.6666666667 F100000
G01 X65.5124069479 Y-2.7332506203 Z8.5882352941 F100000
G01 X65.0161290323 Y-2.7332506203 Z8.5882352941 F100000
G01 X64.7679900744 Y-2.7332506203 Z8.6274509804 F100000
G01 X64.5198511166 Y-2.7332506203 Z8.7058823529 F100000
G01 X64.2717121588 Y-2.7332506203 Z8.7843137255 F100000
G01 X62.5347394541 Y-2.7332506203 Z8.7843137255 F100000
G01 X62.2866004963 Y-2.7332506203 Z8.4705882353 F100000
G01 X61.5421836228 Y-2.7332506203 Z8.4705882353 F100000
G01 X61.294044665 Y-2.7332506203 Z8.431372549 F100000
G01 X61.0459057072 Y-2.7332506203 Z8.3921568627 F100000
G01 X60.3014888337 Y-2.7332506203 Z8.3921568627 F100000
G01 X60.0533498759 Y-2.7332506203 Z8.431372549 F100000
G01 X59.0607940447 Y-2.7332506203 Z8.431372549 F100000
G01 X58.8126550868 Y-2.7332506203 Z8.1960784314 F100000
G01 X58.3163771712 Y-2.7332506203 Z8.1960784314 F100000
G01 X58.0682382134 Y-2.7332506203 Z8.3529411765 F100000
G01 X57.0756823821 Y-2.7332506203 Z8.3529411765 F100000
G01 X56.8275434243 Y-2.7332506203 Z8.2352941176 F100000
G01 X56.5794044665 Y-2.7332506203 Z8.1176470588 F100000
G01 X56.3312655087 Y-2.7332506203 Z8.1176470588 F100000
G01 X56.0831265509 Y-2.7332506203 Z8.1960784314 F100000
G01 X55.0905707196 Y-2.7332506203 Z8.1960784314 F100000
G01 X54.8424317618 Y-2.7332506203 Z8.1568627451 F100000
G01 X54.0980148883 Y-2.7332506203 Z8.1568627451 F100000
G01 X53.8498759305 Y-2.7332506203 Z8.2352941176 F100000
G01 X53.6017369727 Y-2.7332506203 Z8.2352941176 F100000
G01 X53.3535980149 Y-2.7332506203 Z8.2745098039 F100000
G01 X52.3610421836 Y-2.7332506203 Z8.2745098039 F100000
G01 X52.1129032258 Y-2.7332506203 Z8.1960784314 F100000
G01 X51.1203473945 Y-2.7332506203 Z8.1960784314 F100000
G01 X50.8722084367 Y-2.7332506203 Z8.1568627451 F100000
G01 X50.6240694789 Y-2.7332506203 Z8.1176470588 F100000
G01 X50.3759305211 Y-2.7332506203 Z8.2745098039 F100000
G01 X49.3833746898 Y-2.7332506203 Z8.2745098039 F100000
G01 X49.135235732 Y-2.7332506203 Z8.0392156863 F100000
G01 X47.8945409429 Y-2.7332506203 Z8.0392156863 F100000
G01 X47.6464019851 Y-2.7332506203 Z7.9607843137 F100000
G01 X47.3982630273 Y-2.7332506203 Z8 F100000
G01 X46.1575682382 Y-2.7332506203 Z8 F100000
G01 X45.9094292804 Y-2.7332506203 Z8.0392156863 F100000
G01 X44.9168734491 Y-2.7332506203 Z8.0392156863 F100000
G01 X44.6687344913 Y-2.7332506203 Z8 F100000
G01 X43.9243176179 Y-2.7332506203 Z8 F100000
G01 X43.67617866 Y-2.7332506203 Z7.8431372549 F100000
G01 X43.4280397022 Y-2.7332506203 Z7.8431372549 F100000
G01 X43.1799007444 Y-2.7332506203 Z8.0784313725 F100000
G01 X42.1873449132 Y-2.7332506203 Z8.0784313725 F100000
G01 X41.9392059553 Y-2.7332506203 Z8 F100000
G01 X41.4429280397 Y-2.7332506203 Z8 F100000
G01 X41.1947890819 Y-2.7332506203 Z7.9215686275 F100000
G01 X40.9466501241 Y-2.7332506203 Z8.0392156863 F100000
G01 X39.9540942928 Y-2.7332506203 Z8.0392156863 F100000
G01 X39.705955335 Y-2.7332506203 Z7.9607843137 F100000
G01 X39.4578163772 Y-2.7332506203 Z7.8431372549 F100000
G01 X39.2096774194 Y-2.7332506203 Z7.8823529412 F100000
G01 X38.2171215881 Y-2.7332506203 Z7.8823529412 F100000
G01 X37.9689826303 Y-2.7332506203 Z7.7647058824 F100000
G01 X37.7208436725 Y-2.7332506203 Z7.8431372549 F100000
G01 X37.4727047146 Y-2.7332506203 Z7.8823529412 F100000
G01 X37.2245657568 Y-2.7332506203 Z7.9607843137 F100000
G01 X36.976426799 Y-2.7332506203 Z8 F100000
G01 X35.9838709677 Y-2.7332506203 Z8 F100000
G01 X35.7357320099 Y-2.7332506203 Z7.9215686275 F100000
G01 X35.2394540943 Y-2.7332506203 Z7.9215686275 F100000
G01 X34.9913151365 Y-2.7332506203 Z7.8039215686 F100000
G01 X34.7431761787 Y-2.7332506203 Z7.7647058824 F100000
G01 X34.4950372208 Y-2.7332506203 Z7.8039215686 F100000
G01 X33.7506203474 Y-2.7332506203 Z7.8039215686 F100000
G01 X33.5024813896 Y-2.7332506203 Z8 F100000
G01 X33.2543424318 Y-2.7332506203 Z8.0784313725 F100000
G01 X32.2617866005 Y-2.7332506203 Z8.0784313725 F100000
G01 X32.0136476427 Y-2.7332506203 Z7.6470588235 F100000
G01 X31.7655086849 Y-2.7332506203 Z7.8431372549 F100000
G01 X31.2692307692 Y-2.7332506203 Z7.8431372549 F100000
G01 X31.0210918114 Y-2.7332506203 Z7.8823529412 F100000
G01 X30.7729528536 Y-2.7332506203 Z7.8823529412 F100000
G01 X30.5248138958 Y-2.7332506203 Z7.9215686275 F100000
G01 X29.7803970223 Y-2.7332506203 Z7.9215686275 F100000
G01 X29.5322580645 Y-2.7332506203 Z8.3921568627 F100000
G01 X28.5397022333 Y-2.7332506203 Z8.3921568627 F100000
G01 X28.2915632754 Y-2.7332506203 Z8.2352941176 F100000
G01 X28.0434243176 Y-2.7332506203 Z7.9215686275 F100000
G01 X27.2990074442 Y-2.7332506203 Z7.9215686275 F100000
G01 X27.0508684864 Y-2.7332506203 Z7.7254901961 F100000
G01 X26.8027295285 Y-2.7332506203 Z7.7254901961 F100000
G01 X26.5545905707 Y-2.7332506203 Z8.0784313725 F100000
G01 X25.5620347395 Y-2.7332506203 Z8.0784313725 F100000
G01 X25.3138957816 Y-2.7332506203 Z8.1568627451 F100000
G01 X24.3213399504 Y-2.7332506203 Z8.1568627451 F100000
G01 X24.0732009926 Y-2.7332506203 Z7.9215686275 F100000
G01 X23.0806451613 Y-2.7332506203 Z7.9215686275 F100000
G01 X22.8325062035 Y-2.7332506203 Z7.9607843137 F100000
G01 X21.8399503722 Y-2.7332506203 Z7.9607843137 F100000
G01 X21.5918114144 Y-2.7332506203 Z7.8039215686 F100000
G01 X21.3436724566 Y-2.7332506203 Z7.8039215686 F100000
G01 X21.0955334988 Y-2.7332506203 Z7.8823529412 F100000
G01 X20.1029776675 Y-2.7332506203 Z7.8823529412 F100000
G01 X19.8548387097 Y-2.7332506203 Z7.568627451 F100000
G01 X19.6066997519 Y-2.7332506203 Z7.4901960784 F100000
G01 X19.358560794 Y-2.7332506203 Z7.4901960784 F100000
G01 X19.1104218362 Y-2.7332506203 Z7.7647058824 F100000
G01 X18.3660049628 Y-2.7332506203 Z7.7647058824 F100000
G01 X18.117866005 Y-2.7332506203 Z7.8431372549 F100000
G01 X17.1253101737 Y-2.7332506203 Z7.8431372549 F100000
G01 X16.8771712159 Y-2.7332506203 Z7.4509803922 F100000
G01 X16.6290322581 Y-2.7332506203 Z7.6078431373 F100000
G01 X15.6364764268 Y-2.7332506203 Z7.6078431373 F100000
G01 X15.388337469 Y-2.7332506203 Z7.2941176471 F100000
G01 X15.1401985112 Y-2.7332506203 Z7.3725490196 F100000
G01 X14.8920595533 Y-2.7332506203 Z7.6078431373 F100000
G01 X13.8995037221 Y-2.7332506203 Z7.6078431373 F100000
G01 X13.6513647643 Y-2.7332506203 Z7.4117647059 F100000
G01 X12.9069478908 Y-2.7332506203 Z7.4117647059 F100000
G01 X12.658808933 Y-2.7332506203 Z7.4901960784 F100000
G01 X12.4106699752 Y-2.7332506203 Z7.568627451 F100000
G01 X11.4181141439 Y-2.7332506203 Z7.568627451 F100000
G01 X11.1699751861 Y-2.7332506203 Z7.4901960784 F100000
G01 X10.6736972705 Y-2.7332506203 Z7.4901960784 F100000
G01 X10.4255583127 Y-2.7332506203 Z7.4509803922 F100000
G01 X10.1774193548 Y-2.7332506203 Z7.7647058824 F100000
G01 X9.929280397 Y-2.7332506203 Z8.7450980392 F100000
G01 X8.9367245658 Y-2.7332506203 Z8.7450980392 F100000
G01 X8.6885856079 Y-2.7332506203 Z7.8431372549 F100000
G01 X8.4404466501 Y-2.7332506203 Z7.8039215686 F100000
G01 X7.4478908189 Y-2.7332506203 Z7.8039215686 F100000
G01 X7.199751861 Y-2.7332506203 Z7.137254902 F100000
G01 X6.7034739454 Y-2.7332506203 Z7.137254902 F100000
G01 X6.4553349876 Y-2.7332506203 Z7.3725490196 F100000
G01 X5.4627791563 Y-2.7332506203 Z7.3725490196 F100000
G01 X5.2146401985 Y-2.7332506203 Z7.2156862745 F100000
G01 X3.4776674938 Y-2.7332506203 Z7.2156862745 F100000
G01 X3.229528536 Y-2.7332506203 Z7.0980392157 F100000
G01 X2.9813895782 Y-2.7332506203 Z6.9803921569 F100000
G01 X2.7332506203 Y-2.7332506203 Z6.9019607843 F100000
G01 X2.4851116625 Y-2.7332506203 Z7.0588235294 F100000
G01 X1.4925558313 Y-2.7332506203 Z7.0588235294 F100000
G01 X1.2444168734 Y-2.7332506203 Z7.0196078431 F100000
G01 X0.9962779156 Y-2.7332506203 Z7.0980392157 F100000
G01 X0.5 Y-2.7332506203 Z7.0980392157 F100000
G01 X0.5 Y-2.9813895782 Z7.0980392157 F100000
G01 X0.5 Y-3.229528536 Z7.137254902 F100000
G01 X0.5 Y-3.4776674938 Z7.137254902 F100000
G01 X1.2444168734 Y-3.4776674938 Z7.137254902 F100000
G01 X1.4925558313 Y-3.4776674938 Z7.2156862745 F100000
G01 X2.4851116625 Y-3.4776674938 Z7.2156862745 F100000
G01 X2.7332506203 Y-3.4776674938 Z6.9803921569 F100000
G01 X2.9813895782 Y-3.4776674938 Z7.0588235294 F100000
G01 X3.229528536 Y-3.4776674938 Z7.0980392157 F100000
G01 X4.4702233251 Y-3.4776674938 Z7.0980392157 F100000
G01 X4.7183622829 Y-3.4776674938 Z7.4509803922 F100000
G01 X5.7109181141 Y-3.4776674938 Z7.4509803922 F100000
G01 X5.959057072 Y-3.4776674938 Z7.3333333333 F100000
G01 X6.4553349876 Y-3.4776674938 Z7.3333333333 F100000
G01 X6.7034739454 Y-3.4776674938 Z7.2156862745 F100000
G01 X7.199751861 Y-3.4776674938 Z7.2156862745 F100000
G01 X7.4478908189 Y-3.4776674938 Z7.8039215686 F100000
G01 X8.4404466501 Y-3.4776674938 Z7.8039215686 F100000
G01 X8.6885856079 Y-3.4776674938 Z7.6078431373 F100000
G01 X8.9367245658 Y-3.4776674938 Z8.3137254902 F100000
G01 X9.929280397 Y-3.4776674938 Z8.3137254902 F100000
G01 X10.1774193548 Y-3.4776674938 Z7.4901960784 F100000
G01 X10.4255583127 Y-3.4776674938 Z7.4901960784 F100000
G01 X10.6736972705 Y-3.4776674938 Z7.6078431373 F100000
G01 X10.9218362283 Y-3.4776674938 Z7.6078431373 F100000
G01 X11.1699751861 Y-3.4776674938 Z7.9215686275 F100000
G01 X12.1625310174 Y-3.4776674938 Z7.9215686275 F100000
G01 X12.4106699752 Y-3.4776674938 Z7.6078431373 F100000
G01 X12.658808933 Y-3.4776674938 Z7.4117647059 F100000
G01 X13.6513647643 Y-3.4776674938 Z7.4117647059 F100000
G01 X13.8995037221 Y-3.4776674938 Z7.3333333333 F100000
G01 X15.1401985112 Y-3.4776674938 Z7.3333333333 F100000
G01 X15.388337469 Y-3.4776674938 Z7.2549019608 F100000
G01 X15.6364764268 Y-3.4776674938 Z7.6078431373 F100000
G01 X16.6290322581 Y-3.4776674938 Z7.6078431373 F100000
G01 X16.8771712159 Y-3.4776674938 Z7.3725490196 F100000
G01 X17.1253101737 Y-3.4776674938 Z7.8431372549 F100000
G01 X18.117866005 Y-3.4776674938 Z7.8431372549 F100000
G01 X18.3660049628 Y-3.4776674938 Z7.4117647059 F100000
G01 X18.6141439206 Y-3.4776674938 Z7.568627451 F100000
G01 X19.6066997519 Y-3.4776674938 Z7.568627451 F100000
G01 X19.8548387097 Y-3.4776674938 Z7.6470588235 F100000
G01 X20.1029776675 Y-3.4776674938 Z7.8823529412 F100000
G01 X21.0955334988 Y-3.4776674938 Z7.8823529412 F100000
G01 X21.3436724566 Y-3.4776674938 Z7.8039215686 F100000
G01 X21.5918114144 Y-3.4776674938 Z7.8039215686 F100000
G01 X21.8399503722 Y-3.4776674938 Z7.9607843137 F100000
G01 X22.8325062035 Y-3.4776674938 Z7.9607843137 F100000
G01 X23.0806451613 Y-3.4776674938 Z7.9215686275 F100000
G01 X23.5769230769 Y-3.4776674938 Z7.9215686275 F100000
G01 X23.8250620347 Y-3.4776674938 Z8 F100000
G01 X25.3138957816 Y-3.4776674938 Z8 F100000
G01 X25.5620347395 Y-3.4776674938 Z7.8431372549 F100000
G01 X26.0583126551 Y-3.4776674938 Z7.8431372549 F100000
G01 X26.3064516129 Y-3.4776674938 Z7.7254901961 F100000
G01 X26.5545905707 Y-3.4776674938 Z7.7254901961 F100000
G01 X26.8027295285 Y-3.4776674938 Z8.1568627451 F100000
G01 X27.7952853598 Y-3.4776674938 Z8.1568627451 F100000
G01 X28.0434243176 Y-3.4776674938 Z7.9215686275 F100000
G01 X28.2915632754 Y-3.4776674938 Z8.2352941176 F100000
G01 X29.2841191067 Y-3.4776674938 Z8.2352941176 F100000
G01 X29.5322580645 Y-3.4776674938 Z7.9215686275 F100000
G01 X30.5248138958 Y-3.4776674938 Z7.9215686275 F100000
G01 X30.7729528536 Y-3.4776674938 Z7.6862745098 F100000
G01 X31.2692307692 Y-3.4776674938 Z7.6862745098 F100000
G01 X31.517369727 Y-3.4776674938 Z7.568627451 F100000
G01 X31.7655086849 Y-3.4776674938 Z7.568627451 F100000
G01 X32.0136476427 Y-3.4776674938 Z7.7647058824 F100000
G01 X32.2617866005 Y-3.4776674938 Z8.0784313725 F100000
G01 X33.2543424318 Y-3.4776674938 Z8.0784313725 F100000
G01 X33.5024813896 Y-3.4776674938 Z7.6470588235 F100000
G01 X33.7506203474 Y-3.4776674938 Z7.8823529412 F100000
G01 X34.7431761787 Y-3.4776674938 Z7.8823529412 F100000
G01 X34.9913151365 Y-3.4776674938 Z7.8039215686 F100000
G01 X35.7357320099 Y-3.4776674938 Z7.8039215686 F100000
G01 X35.9838709677 Y-3.4776674938 Z8 F100000
G01 X36.976426799 Y-3.4776674938 Z8 F100000
G01 X37.2245657568 Y-3.4776674938 Z7.9607843137 F100000
G01 X37.4727047146 Y-3.4776674938 Z7.6862745098 F100000
G01 X37.7208436725 Y-3.4776674938 Z7.6862745098 F100000
G01 X37.9689826303 Y-3.4776674938 Z7.7647058824 F100000
G01 X38.2171215881 Y-3.4776674938 Z7.8823529412 F100000
G01 X39.705955335 Y-3.4776674938 Z7.8823529412 F100000
G01 X39.9540942928 Y-3.4776674938 Z8.0392156863 F100000
G01 X40.9466501241 Y-3.4776674938 Z8.0392156863 F100000
G01 X41.1947890819 Y-3.4776674938 Z7.8431372549 F100000
G01 X41.4429280397 Y-3.4776674938 Z8 F100000
G01 X42.435483871 Y-3.4776674938 Z8 F100000
G01 X42.6836228288 Y-3.4776674938 Z7.9215686275 F100000
G01 X43.1799007444 Y-3.4776674938 Z7.9215686275 F100000
G01 X43.4280397022 Y-3.4776674938 Z8.0784313725 F100000
G01 X44.4205955335 Y-3.4776674938 Z8.0784313725 F100000
G01 X44.6687344913 Y-3.4776674938 Z7.9215686275 F100000
G01 X45.1650124069 Y-3.4776674938 Z7.9215686275 F100000
G01 X45.4131513648 Y-3.4776674938 Z8 F100000
G01 X46.405707196 Y-3.4776674938 Z8 F100000
G01 X46.6538461538 Y-3.4776674938 Z7.8431372549 F100000
G01 X46.9019851117 Y-3.4776674938 Z7.9215686275 F100000
G01 X47.1501240695 Y-3.4776674938 Z7.9215686275 F100000
G01 X47.3982630273 Y-3.4776674938 Z7.9607843137 F100000
G01 X47.6464019851 Y-3.4776674938 Z7.9607843137 F100000
G01 X47.8945409429 Y-3.4776674938 Z8.0392156863 F100000
G01 X48.1426799007 Y-3.4776674938 Z8.1568627451 F100000
G01 X49.135235732 Y-3.4776674938 Z8.1568627451 F100000
G01 X49.3833746898 Y-3.4776674938 Z8.2745098039 F100000
G01 X50.3759305211 Y-3.4776674938 Z8.2745098039 F100000
G01 X50.6240694789 Y-3.4776674938 Z8.1960784314 F100000
G01 X51.3684863524 Y-3.4776674938 Z8.1960784314 F100000
G01 X51.6166253102 Y-3.4776674938 Z8.1176470588 F100000
G01 X51.864764268 Y-3.4776674938 Z8.1176470588 F100000
G01 X52.1129032258 Y-3.4776674938 Z8.0784313725 F100000
G01 X52.8573200993 Y-3.4776674938 Z8.0784313725 F100000
G01 X53.1054590571 Y-3.4776674938 Z8.1176470588 F100000
G01 X53.8498759305 Y-3.4776674938 Z8.1176470588 F100000
G01 X54.0980148883 Y-3.4776674938 Z8.1568627451 F100000
G01 X54.3461538462 Y-3.4776674938 Z8.1568627451 F100000
G01 X54.594292804 Y-3.4776674938 Z8.3137254902 F100000
G01 X55.5868486352 Y-3.4776674938 Z8.3137254902 F100000
G01 X55.8349875931 Y-3.4776674938 Z8.1568627451 F100000
G01 X56.3312655087 Y-3.4776674938 Z8.1568627451 F100000
G01 X56.5794044665 Y-3.4776674938 Z8.1176470588 F100000
G01 X56.8275434243 Y-3.4776674938 Z8.2352941176 F100000
G01 X57.0756823821 Y-3.4776674938 Z8.3921568627 F100000
G01 X58.0682382134 Y-3.4776674938 Z8.3921568627 F100000
G01 X58.3163771712 Y-3.4776674938 Z8.2745098039 F100000
G01 X58.8126550868 Y-3.4776674938 Z8.2745098039 F100000
G01 X59.0607940447 Y-3.4776674938 Z8.431372549 F100000
G01 X60.0533498759 Y-3.4776674938 Z8.431372549 F100000
G01 X60.3014888337 Y-3.4776674938 Z8.3921568627 F100000
G01 X61.0459057072 Y-3.4776674938 Z8.3921568627 F100000
G01 X61.294044665 Y-3.4776674938 Z8.431372549 F100000
G01 X61.5421836228 Y-3.4776674938 Z8.4705882353 F100000
G01 X62.2866004963 Y-3.4776674938 Z8.4705882353 F100000
G01 X62.5347394541 Y-3.4776674938 Z8.7843137255 F100000
G01 X63.5272952854 Y-3.4776674938 Z8.7843137255 F100000
G01 X63.7754342432 Y-3.4776674938 Z8.6274509804 F100000
G01 X64.7679900744 Y-3.4776674938 Z8.6274509804 F100000
G01 X65.0161290323 Y-3.4776674938 Z8.5882352941 F100000
G01 X66.2568238213 Y-3.4776674938 Z8.5882352941 F100000
G01 X66.5049627792 Y-3.4776674938 Z8.6274509804 F100000
G01 X67.4975186104 Y-3.4776674938 Z8.6274509804 F100000
G01 X67.7456575682 Y-3.4776674938 Z8.5098039216 F100000
G01 X67.9937965261 Y-3.4776674938 Z8.6666666667 F100000
G01 X68.9863523573 Y-3.4776674938 Z8.6666666667 F100000
G01 X69.2344913151 Y-3.4776674938 Z8.6274509804 F100000
G01 X69.482630273 Y-3.4776674938 Z8.6274509804 F100000
G01 X69.7307692308 Y-3.4776674938 Z8.8235294118 F100000
G01 X69.9789081886 Y-3.4776674938 Z8.9019607843 F100000
G01 X70.9714640199 Y-3.4776674938 Z8.9019607843 F100000
G01 X71.2196029777 Y-3.4776674938 Z8.6666666667 F100000
G01 X71.4677419355 Y-3.4776674938 Z8.6274509804 F100000
G01 X73.2047146402 Y-3.4776674938 Z8.6274509804 F100000
G01 X73.452853598 Y-3.4776674938 Z8.7058823529 F100000
G01 X73.7009925558 Y-3.4776674938 Z8.7843137255 F100000
G01 X74.6935483871 Y-3.4776674938 Z8.7843137255 F100000
G01 X74.9416873449 Y-3.4776674938 Z8.9019607843 F100000
G01 X75.9342431762 Y-3.4776674938 Z8.9019607843 F100000
G01 X76.182382134 Y-3.4776674938 Z8.862745098 F100000
G01 X76.4305210918 Y-3.4776674938 Z8.862745098 F100000
G01 X76.6786600496 Y-3.4776674938 Z8.5098039216 F100000
G01 X76.9267990074 Y-3.4776674938 Z8.5098039216 F100000
G01 X77.1749379653 Y-3.4776674938 Z8.3529411765 F100000
G01 X77.4230769231 Y-3.4776674938 Z8.1176470588 F100000
G01 X77.6712158809 Y-3.4776674938 Z7.568627451 F100000
G01 X77.9193548387 Y-3.4776674938 Z7.0980392157 F100000
G01 X78.1674937965 Y-3.4776674938 Z6.7450980392 F100000
G01 X78.4156327543 Y-3.4776674938 Z6.3137254902 F100000
G01 X78.6637717122 Y-3.4776674938 Z5.8823529412 F100000
G01 X78.91191067 Y-3.4776674938 Z5.4901960784 F100000
G01 X79.1600496278 Y-3.4776674938 Z5.3725490196 F100000
G01 X79.4081885856 Y-3.4776674938 Z5.137254902 F100000
G01 X79.6563275434 Y-3.4776674938 Z4.7843137255 F100000
G01 X79.9044665012 Y-3.4776674938 Z4.6274509804 F100000
G01 X80.1526054591 Y-3.4776674938 Z4.431372549 F100000
G01 X80.4007444169 Y-3.4776674938 Z3.9607843137 F100000
G01 X80.6488833747 Y-3.4776674938 Z3.6862745098 F100000
G01 X81.641439206 Y-3.4776674938 Z3.6862745098 F100000
G01 X81.8895781638 Y-3.4776674938 Z3.5294117647 F100000
G01 X82.882133995 Y-3.4776674938 Z3.5294117647 F100000
G01 X83.1302729529 Y-3.4776674938 Z3.6862745098 F100000
G01 X84.1228287841 Y-3.4776674938 Z3.6862745098 F100000
G01 X84.3709677419 Y-3.4776674938 Z3.6470588235 F100000
G01 X84.8672456576 Y-3.4776674938 Z3.6470588235 F100000
G01 X85.1153846154 Y-3.4776674938 Z3.5294117647 F100000
G01 X85.3635235732 Y-3.4776674938 Z3.568627451 F100000
G01 X86.1079404467 Y-3.4776674938 Z3.568627451 F100000
G01 X86.3560794045 Y-3.4776674938 Z3.6078431373 F100000
G01 X86.6042183623 Y-3.4776674938 Z3.6470588235 F100000
G01 X86.8523573201 Y-3.4776674938 Z3.8039215686 F100000
G01 X87.1004962779 Y-3.4776674938 Z3.8039215686 F100000
G01 X87.3486352357 Y-3.4776674938 Z4.1568627451 F100000
G01 X88.341191067 Y-3.4776674938 Z4.1568627451 F100000
G01 X88.5893300248 Y-3.4776674938 Z4.431372549 F100000
G01 X88.8374689826 Y-3.4776674938 Z4.5490196078 F100000
G01 X89.3337468983 Y-3.4776674938 Z4.5490196078 F100000
G01 X89.5818858561 Y-3.4776674938 Z4.9803921569 F100000
G01 X89.8300248139 Y-3.4776674938 Z5.2156862745 F100000
G01 X90.0781637717 Y-3.4776674938 Z5.3725490196 F100000
G01 X90.3263027295 Y-3.4776674938 Z5.8823529412 F100000
G01 X90.5744416873 Y-3.4776674938 Z6.5490196078 F100000
G01 X90.8225806452 Y-3.4776674938 Z7.1764705882 F100000
G01 X91.070719603 Y-3.4776674938 Z7.3725490196 F100000
G01 X91.3188585608 Y-3.4776674938 Z7.6078431373 F100000
G01 X91.5669975186 Y-3.4776674938 Z7.8823529412 F100000
G01 X91.8151364764 Y-3.4776674938 Z8.1568627451 F100000
G01 X92.0632754342 Y-3.4776674938 Z8.2745098039 F100000
G01 X92.3114143921 Y-3.4776674938 Z8.5098039216 F100000
G01 X92.5595533499 Y-3.4776674938 Z8.862745098 F100000
G01 X92.8076923077 Y-3.4776674938 Z9.2156862745 F100000
G01 X93.800248139 Y-3.4776674938 Z9.2156862745 F100000
G01 X94.0483870968 Y-3.4776674938 Z9.0196078431 F100000
G01 X94.2965260546 Y-3.4776674938 Z9.0196078431 F100000
G01 X94.5446650124 Y-3.4776674938 Z8.8235294118 F100000
G01 X94.7928039702 Y-3.4776674938 Z8.7450980392 F100000
G01 X95.2890818859 Y-3.4776674938 Z8.7450980392 F100000
G01 X95.5372208437 Y-3.4776674938 Z8.6666666667 F100000
G01 X95.7853598015 Y-3.4776674938 Z8.4705882353 F100000
G01 X96.0334987593 Y-3.4776674938 Z8.3529411765 F100000
G01 X96.2816377171 Y-3.4776674938 Z8.2745098039 F100000
G01 X96.5297766749 Y-3.4776674938 Z8.1568627451 F100000
G01 X96.7779156328 Y-3.4776674938 Z8.0784313725 F100000
G01 X97.0260545906 Y-3.4776674938 Z8.0784313725 F100000
G01 X97.2741935484 Y-3.4776674938 Z8 F100000
G01 X97.5223325062 Y-3.4776674938 Z7.8823529412 F100000
G01 X97.770471464 Y-3.4776674938 Z7.8039215686 F100000
G01 X98.0186104218 Y-3.4776674938 Z7.8039215686 F100000
G01 X98.2667493797 Y-3.4776674938 Z7.7647058824 F100000
G01 X98.5148883375 Y-3.4776674938 Z7.6862745098 F100000
G01 X98.7630272953 Y-3.4776674938 Z7.6470588235 F100000
G01 X99.0111662531 Y-3.4776674938 Z7.6078431373 F100000
G01 X99.5074441687 Y-3.4776674938 Z7.6078431373 F100000
G01 X99.5074441687 Y-3.7258064516 Z7.6470588235 F100000
G01 X99.5074441687 Y-3.9739454094 Z7.6470588235 F100000
G01 X99.5074441687 Y-4.2220843672 Z7.6470588235 F100000
G01 X98.7630272953 Y-4.2220843672 Z7.6470588235 F100000
G01 X98.5148883375 Y-4.2220843672 Z7.7254901961 F100000
G01 X97.5223325062 Y-4.2220843672 Z7.7254901961 F100000
G01 X97.2741935484 Y-4.2220843672 Z7.9607843137 F100000
G01 X97.0260545906 Y-4.2220843672 Z8 F100000
G01 X96.7779156328 Y-4.2220843672 Z8.0392156863 F100000
G01 X96.5297766749 Y-4.2220843672 Z8.1568627451 F100000
G01 X96.2816377171 Y-4.2220843672 Z8.2745098039 F100000
G01 X96.0334987593 Y-4.2220843672 Z8.2745098039 F100000
G01 X95.7853598015 Y-4.2220843672 Z8.3921568627 F100000
G01 X95.5372208437 Y-4.2220843672 Z8.431372549 F100000
G01 X94.5446650124 Y-4.2220843672 Z8.431372549 F100000
G01 X94.2965260546 Y-4.2220843672 Z8.2352941176 F100000
G01 X94.0483870968 Y-4.2220843672 Z7.9607843137 F100000
G01 X93.800248139 Y-4.2220843672 Z7.6078431373 F100000
G01 X93.5521091811 Y-4.2220843672 Z6.7450980392 F100000
G01 X93.3039702233 Y-4.2220843672 Z5.6470588235 F100000
G01 X93.0558312655 Y-4.2220843672 Z4.9019607843 F100000
G01 X92.8076923077 Y-4.2220843672 Z4.7058823529 F100000
G01 X92.5595533499 Y-4.2220843672 Z4.5490196078 F100000
G01 X92.3114143921 Y-4.2220843672 Z3.9215686275 F100000
G01 X92.0632754342 Y-4.2220843672 Z3.8823529412 F100000
G01 X90.8225806452 Y-4.2220843672 Z3.8823529412 F100000
G01 X90.5744416873 Y-4.2220843672 Z3.7254901961 F100000
G01 X90.3263027295 Y-4.2220843672 Z3.7254901961 F100000
G01 X90.0781637717 Y-4.2220843672 Z3.6862745098 F100000
G01 X89.5818858561 Y-4.2220843672 Z3.6862745098 F100000
G01 X89.3337468983 Y-4.2220843672 Z3.6470588235 F100000
G01 X87.1004962779 Y-4.2220843672 Z3.6470588235 F100000
G01 X86.8523573201 Y-4.2220843672 Z3.568627451 F100000
G01 X85.8598014888 Y-4.2220843672 Z3.568627451 F100000
G01 X85.611662531 Y-4.2220843672 Z3.5294117647 F100000
G01 X85.3635235732 Y-4.2220843672 Z3.4901960784 F100000
G01 X85.1153846154 Y-4.2220843672 Z3.4901960784 F100000
G01 X84.8672456576 Y-4.2220843672 Z3.6078431373 F100000
G01 X83.8746898263 Y-4.2220843672 Z3.6078431373 F100000
G01 X83.6265508685 Y-4.2220843672 Z3.5294117647 F100000
G01 X82.6339950372 Y-4.2220843672 Z3.5294117647 F100000
G01 X82.3858560794 Y-4.2220843672 Z3.4509803922 F100000
G01 X82.1377171216 Y-4.2220843672 Z3.4509803922 F100000
G01 X81.8895781638 Y-4.2220843672 Z3.5294117647 F100000
G01 X81.641439206 Y-4.2220843672 Z3.6862745098 F100000
G01 X80.6488833747 Y-4.2220843672 Z3.6862745098 F100000
G01 X80.4007444169 Y-4.2220843672 Z3.3725490196 F100000
G01 X79.9044665012 Y-4.2220843672 Z3.3725490196 F100000
G01 X79.6563275434 Y-4.2220843672 Z3.4509803922 F100000
G01 X77.6712158809 Y-4.2220843672 Z3.4509803922 F100000
G01 X77.4230769231 Y-4.2220843672 Z4 F100000
G01 X77.1749379653 Y-4.2220843672 Z5.3725490196 F100000
G01 X76.9267990074 Y-4.2220843672 Z6.431372549 F100000
G01 X76.6786600496 Y-4.2220843672 Z7.8431372549 F100000
G01 X76.4305210918 Y-4.2220843672 Z8.1960784314 F100000
G01 X75.6861042184 Y-4.2220843672 Z8.1960784314 F100000
G01 X75.4379652605 Y-4.2220843672 Z8.2745098039 F100000
G01 X75.1898263027 Y-4.2220843672 Z8.5098039216 F100000
G01 X74.9416873449 Y-4.2220843672 Z8.7843137255 F100000
G01 X73.9491315136 Y-4.2220843672 Z8.7843137255 F100000
G01 X73.7009925558 Y-4.2220843672 Z8.7058823529 F100000
G01 X73.452853598 Y-4.2220843672 Z8.6274509804 F100000
G01 X73.2047146402 Y-4.2220843672 Z8.5882352941 F100000
G01 X72.9565756824 Y-4.2220843672 Z8.6666666667 F100000
G01 X71.2196029777 Y-4.2220843672 Z8.6666666667 F100000
G01 X70.9714640199 Y-4.2220843672 Z8.9019607843 F100000
G01 X69.9789081886 Y-4.2220843672 Z8.9019607843 F100000
G01 X69.7307692308 Y-4.2220843672 Z8.8235294118 F100000
G01 X69.2344913151 Y-4.2220843672 Z8.8235294118 F100000
G01 X68.9863523573 Y-4.2220843672 Z8.5490196078 F100000
G01 X68.7382133995 Y-4.2220843672 Z8.4705882353 F100000
G01 X68.4900744417 Y-4.2220843672 Z8.431372549 F100000
G01 X67.7456575682 Y-4.2220843672 Z8.431372549 F100000
G01 X67.4975186104 Y-4.2220843672 Z8.6274509804 F100000
G01 X66.5049627792 Y-4.2220843672 Z8.6274509804 F100000
G01 X66.2568238213 Y-4.2220843672 Z8.5882352941 F100000
G01 X65.2642679901 Y-4.2220843672 Z8.5882352941 F100000
G01 X65.0161290323 Y-4.2220843672 Z8.5490196078 F100000
G01 X64.7679900744 Y-4.2220843672 Z8.5882352941 F100000
G01 X63.7754342432 Y-4.2220843672 Z8.5882352941 F100000
G01 X63.5272952854 Y-4.2220843672 Z8.5098039216 F100000
G01 X63.2791563275 Y-4.2220843672 Z8.4705882353 F100000
G01 X62.2866004963 Y-4.2220843672 Z8.4705882353 F100000
G01 X62.0384615385 Y-4.2220843672 Z8.3921568627 F100000
G01 X60.5496277916 Y-4.2220843672 Z8.3921568627 F100000
G01 X60.3014888337 Y-4.2220843672 Z8.2352941176 F100000
G01 X60.0533498759 Y-4.2220843672 Z8.1568627451 F100000
G01 X59.8052109181 Y-4.2220843672 Z8.1568627451 F100000
G01 X59.5570719603 Y-4.2220843672 Z8.2352941176 F100000
G01 X59.3089330025 Y-4.2220843672 Z8.2745098039 F100000
G01 X58.3163771712 Y-4.2220843672 Z8.2745098039 F100000
G01 X58.0682382134 Y-4.2220843672 Z8.3921568627 F100000
G01 X57.0756823821 Y-4.2220843672 Z8.3921568627 F100000
G01 X56.8275434243 Y-4.2220843672 Z8.1176470588 F100000
G01 X56.5794044665 Y-4.2220843672 Z8.1176470588 F100000
G01 X56.3312655087 Y-4.2220843672 Z8.1568627451 F100000
G01 X55.8349875931 Y-4.2220843672 Z8.1568627451 F100000
G01 X55.5868486352 Y-4.2220843672 Z8.3137254902 F100000
G01 X54.594292804 Y-4.2220843672 Z8.3137254902 F100000
G01 X54.3461538462 Y-4.2220843672 Z7.9607843137 F100000
G01 X54.0980148883 Y-4.2220843672 Z8 F100000
G01 X52.6091811414 Y-4.2220843672 Z8 F100000
G01 X52.3610421836 Y-4.2220843672 Z8.1176470588 F100000
G01 X51.6166253102 Y-4.2220843672 Z8.1176470588 F100000
G01 X51.3684863524 Y-4.2220843672 Z8.1960784314 F100000
G01 X50.3759305211 Y-4.2220843672 Z8.1960784314 F100000
G01 X50.1277915633 Y-4.2220843672 Z8.1568627451 F100000
G01 X46.9019851117 Y-4.2220843672 Z8.1568627451 F100000
G01 X46.6538461538 Y-4.2220843672 Z8 F100000
G01 X45.9094292804 Y-4.2220843672 Z8 F100000
G01 X45.6612903226 Y-4.2220843672 Z7.8431372549 F100000
G01 X45.4131513648 Y-4.2220843672 Z7.8431372549 F100000
G01 X45.1650124069 Y-4.2220843672 Z7.8039215686 F100000
G01 X44.9168734491 Y-4.2220843672 Z7.7647058824 F100000
G01 X44.6687344913 Y-4.2220843672 Z7.8823529412 F100000
G01 X43.67617866 Y-4.2220843672 Z7.8823529412 F100000
G01 X43.4280397022 Y-4.2220843672 Z7.8431372549 F100000
G01 X43.1799007444 Y-4.2220843672 Z7.8431372549 F100000
G01 X42.9317617866 Y-4.2220843672 Z7.9215686275 F100000
G01 X41.9392059553 Y-4.2220843672 Z7.9215686275 F100000
G01 X41.6910669975 Y-4.2220843672 Z7.7647058824 F100000
G01 X41.4429280397 Y-4.2220843672 Z7.7647058824 F100000
G01 X41.1947890819 Y-4.2220843672 Z7.8039215686 F100000
G01 X40.6985111663 Y-4.2220843672 Z7.8039215686 F100000
G01 X40.4503722084 Y-4.2220843672 Z7.8823529412 F100000
G01 X39.4578163772 Y-4.2220843672 Z7.8823529412 F100000
G01 X39.2096774194 Y-4.2220843672 Z7.8431372549 F100000
G01 X38.4652605459 Y-4.2220843672 Z7.8431372549 F100000
G01 X38.2171215881 Y-4.2220843672 Z7.8039215686 F100000
G01 X37.9689826303 Y-4.2220843672 Z7.6862745098 F100000
G01 X37.4727047146 Y-4.2220843672 Z7.6862745098 F100000
G01 X37.2245657568 Y-4.2220843672 Z7.6470588235 F100000
G01 X36.976426799 Y-4.2220843672 Z8 F100000
G01 X35.9838709677 Y-4.2220843672 Z8 F100000
G01 X35.7357320099 Y-4.2220843672 Z7.8039215686 F100000
G01 X34.9913151365 Y-4.2220843672 Z7.8039215686 F100000
G01 X34.7431761787 Y-4.2220843672 Z7.8823529412 F100000
G01 X33.7506203474 Y-4.2220843672 Z7.8823529412 F100000
G01 X33.5024813896 Y-4.2220843672 Z7.7647058824 F100000
G01 X32.0136476427 Y-4.2220843672 Z7.7647058824 F100000
G01 X31.7655086849 Y-4.2220843672 Z7.6078431373 F100000
G01 X31.2692307692 Y-4.2220843672 Z7.6078431373 F100000
G01 X31.0210918114 Y-4.2220843672 Z7.568627451 F100000
G01 X30.7729528536 Y-4.2220843672 Z7.5294117647 F100000
G01 X30.5248138958 Y-4.2220843672 Z7.5294117647 F100000
G01 X30.276674938 Y-4.2220843672 Z7.4509803922 F100000
G01 X29.7803970223 Y-4.2220843672 Z7.4509803922 F100000
G01 X29.5322580645 Y-4.2220843672 Z7.4117647059 F100000
G01 X29.2841191067 Y-4.2220843672 Z7.4117647059 F100000
G01 X29.0359801489 Y-4.2220843672 Z7.568627451 F100000
G01 X28.7878411911 Y-4.2220843672 Z7.6470588235 F100000
G01 X28.0434243176 Y-4.2220843672 Z7.6470588235 F100000
G01 X27.7952853598 Y-4.2220843672 Z8.1568627451 F100000
G01 X26.8027295285 Y-4.2220843672 Z8.1568627451 F100000
G01 X26.5545905707 Y-4.2220843672 Z7.6862745098 F100000
G01 X26.3064516129 Y-4.2220843672 Z7.6862745098 F100000
G01 X26.0583126551 Y-4.2220843672 Z7.8431372549 F100000
G01 X25.5620347395 Y-4.2220843672 Z7.8431372549 F100000
G01 X25.3138957816 Y-4.2220843672 Z8.6274509804 F100000
G01 X24.3213399504 Y-4.2220843672 Z8.6274509804 F100000
G01 X24.0732009926 Y-4.2220843672 Z7.7647058824 F100000
G01 X23.8250620347 Y-4.2220843672 Z7.7647058824 F100000
G01 X23.5769230769 Y-4.2220843672 Z7.4901960784 F100000
G01 X23.0806451613 Y-4.2220843672 Z7.4901960784 F100000
G01 X22.8325062035 Y-4.2220843672 Z7.568627451 F100000
G01 X22.3362282878 Y-4.2220843672 Z7.568627451 F100000
G01 X22.08808933 Y-4.2220843672 Z7.6862745098 F100000
G01 X21.8399503722 Y-4.2220843672 Z7.7254901961 F100000
G01 X20.8473945409 Y-4.2220843672 Z7.7254901961 F100000
G01 X20.5992555831 Y-4.2220843672 Z7.6470588235 F100000
G01 X20.1029776675 Y-4.2220843672 Z7.6470588235 F100000
G01 X19.8548387097 Y-4.2220843672 Z7.8823529412 F100000
G01 X19.1104218362 Y-4.2220843672 Z7.8823529412 F100000
G01 X18.8622828784 Y-4.2220843672 Z8.0392156863 F100000
G01 X17.8697270471 Y-4.2220843672 Z8.0392156863 F100000
G01 X17.6215880893 Y-4.2220843672 Z7.3725490196 F100000
G01 X17.3734491315 Y-4.2220843672 Z7.5294117647 F100000
G01 X16.3808933002 Y-4.2220843672 Z7.5294117647 F100000
G01 X16.1327543424 Y-4.2220843672 Z7.4901960784 F100000
G01 X15.1401985112 Y-4.2220843672 Z7.4901960784 F100000
G01 X14.8920595533 Y-4.2220843672 Z7.3333333333 F100000
G01 X14.3957816377 Y-4.2220843672 Z7.3333333333 F100000
G01 X14.1476426799 Y-4.2220843672 Z7.4117647059 F100000
G01 X12.4106699752 Y-4.2220843672 Z7.4117647059 F100000
G01 X12.1625310174 Y-4.2220843672 Z7.9215686275 F100000
G01 X11.1699751861 Y-4.2220843672 Z7.9215686275 F100000
G01 X10.9218362283 Y-4.2220843672 Z7.6078431373 F100000
G01 X10.6736972705 Y-4.2220843672 Z7.6078431373 F100000
G01 X10.4255583127 Y-4.2220843672 Z7.4901960784 F100000
G01 X10.1774193548 Y-4.2220843672 Z7.4901960784 F100000
G01 X9.929280397 Y-4.2220843672 Z7.3333333333 F100000
G01 X9.1848635236 Y-4.2220843672 Z7.3333333333 F100000
G01 X8.9367245658 Y-4.2220843672 Z7.6078431373 F100000
G01 X7.9441687345 Y-4.2220843672 Z7.6078431373 F100000
G01 X7.6960297767 Y-4.2220843672 Z7.3725490196 F100000
G01 X7.199751861 Y-4.2220843672 Z7.3725490196 F100000
G01 X6.9516129032 Y-4.2220843672 Z7.2156862745 F100000
G01 X6.2071960298 Y-4.2220843672 Z7.2156862745 F100000
G01 X5.959057072 Y-4.2220843672 Z7.0588235294 F100000
G01 X5.7109181141 Y-4.2220843672 Z7.4509803922 F100000
G01 X4.7183622829 Y-4.2220843672 Z7.4509803922 F100000
G01 X4.4702233251 Y-4.2220843672 Z7.0980392157 F100000
G01 X3.4776674938 Y-4.2220843672 Z7.0980392157 F100000
G01 X3.229528536 Y-4.2220843672 Z7.0588235294 F100000
G01 X2.9813895782 Y-4.2220843672 Z7.0588235294 F100000
G01 X2.7332506203 Y-4.2220843672 Z7.0196078431 F100000
G01 X2.4851116625 Y-4.2220843672 Z7.2156862745 F100000
G01 X1.2444168734 Y-4.2220843672 Z7.2156862745 F100000
G01 X0.9962779156 Y-4.2220843672 Z7.137254902 F100000
G01 X0.5 Y-4.2220843672 Z7.137254902 F100000
G01 X0.5 Y-4.4702233251 Z7.137254902 F100000
G01 X0.5 Y-4.7183622829 Z7.137254902 F100000
G01 X0.5 Y-4.9665012407 Z7.137254902 F100000
G01 X0.7481389578 Y-4.9665012407 Z7.4117647059 F100000
G01 X0.9962779156 Y-4.9665012407 Z7.137254902 F100000
G01 X1.2444168734 Y-4.9665012407 Z7.2156862745 F100000
G01 X1.4925558313 Y-4.9665012407 Z7.2156862745 F100000
G01 X1.7406947891 Y-4.9665012407 Z7.3333333333 F100000
G01 X2.7332506203 Y-4.9665012407 Z7.3333333333 F100000
G01 X2.9813895782 Y-4.9665012407 Z7.0980392157 F100000
G01 X3.9739454094 Y-4.9665012407 Z7.0980392157 F100000
G01 X4.2220843672 Y-4.9665012407 Z7.0588235294 F100000
G01 X4.4702233251 Y-4.9665012407 Z7.0588235294 F100000
G01 X4.7183622829 Y-4.9665012407 Z7.4509803922 F100000
G01 X5.7109181141 Y-4.9665012407 Z7.4509803922 F100000
G01 X5.959057072 Y-4.9665012407 Z7.2549019608 F100000
G01 X6.7034739454 Y-4.9665012407 Z7.2549019608 F100000
G01 X6.9516129032 Y-4.9665012407 Z6.9803921569 F100000
G01 X7.199751861 Y-4.9665012407 Z7.3725490196 F100000
G01 X7.6960297767 Y-4.9665012407 Z7.3725490196 F100000
G01 X7.9441687345 Y-4.9665012407 Z7.4901960784 F100000
G01 X8.9367245658 Y-4.9665012407 Z7.4901960784 F100000
G01 X9.1848635236 Y-4.9665012407 Z7.2549019608 F100000
G01 X9.4330024814 Y-4.9665012407 Z7.1764705882 F100000
G01 X9.6811414392 Y-4.9665012407 Z7.2941176471 F100000
G01 X9.929280397 Y-4.9665012407 Z7.2941176471 F100000
G01 X10.1774193548 Y-4.9665012407 Z7.4901960784 F100000
G01 X10.6736972705 Y-4.9665012407 Z7.4901960784 F100000
G01 X10.9218362283 Y-4.9665012407 Z7.5294117647 F100000
G01 X11.9143920596 Y-4.9665012407 Z7.5294117647 F100000
G01 X12.1625310174 Y-4.9665012407 Z7.4901960784 F100000
G01 X12.4106699752 Y-4.9665012407 Z7.2941176471 F100000
G01 X12.9069478908 Y-4.9665012407 Z7.2941176471 F100000
G01 X13.1550868486 Y-4.9665012407 Z7.4117647059 F100000
G01 X13.4032258065 Y-4.9665012407 Z7.7254901961 F100000
G01 X14.3957816377 Y-4.9665012407 Z7.7254901961 F100000
G01 X14.6439205955 Y-4.9665012407 Z7.1764705882 F100000
G01 X14.8920595533 Y-4.9665012407 Z7.6470588235 F100000
G01 X15.8846153846 Y-4.9665012407 Z7.6470588235 F100000
G01 X16.1327543424 Y-4.9665012407 Z7.4901960784 F100000
G01 X16.3808933002 Y-4.9665012407 Z7.5294117647 F100000
G01 X17.3734491315 Y-4.9665012407 Z7.5294117647 F100000
G01 X17.6215880893 Y-4.9665012407 Z7.6862745098 F100000
G01 X17.8697270471 Y-4.9665012407 Z8.0392156863 F100000
G01 X18.8622828784 Y-4.9665012407 Z8.0392156863 F100000
G01 X19.1104218362 Y-4.9665012407 Z7.8823529412 F100000
G01 X19.8548387097 Y-4.9665012407 Z7.8823529412 F100000
G01 X20.1029776675 Y-4.9665012407 Z7.7254901961 F100000
G01 X20.3511166253 Y-4.9665012407 Z7.7254901961 F100000
G01 X20.5992555831 Y-4.9665012407 Z8.0392156863 F100000
G01 X21.5918114144 Y-4.9665012407 Z8.0392156863 F100000
G01 X21.8399503722 Y-4.9665012407 Z7.6862745098 F100000
G01 X22.08808933 Y-4.9665012407 Z7.6862745098 F100000
G01 X22.3362282878 Y-4.9665012407 Z7.3725490196 F100000
G01 X22.5843672457 Y-4.9665012407 Z7.4901960784 F100000
G01 X22.8325062035 Y-4.9665012407 Z7.5294117647 F100000
G01 X24.0732009926 Y-4.9665012407 Z7.5294117647 F100000
G01 X24.3213399504 Y-4.9665012407 Z8.5882352941 F100000
G01 X25.3138957816 Y-4.9665012407 Z8.5882352941 F100000
G01 X25.5620347395 Y-4.9665012407 Z7.7254901961 F100000
G01 X25.8101736973 Y-4.9665012407 Z7.6078431373 F100000
G01 X26.0583126551 Y-4.9665012407 Z7.8039215686 F100000
G01 X27.0508684864 Y-4.9665012407 Z7.8039215686 F100000
G01 X27.2990074442 Y-4.9665012407 Z7.6470588235 F100000
G01 X28.2915632754 Y-4.9665012407 Z7.6470588235 F100000
G01 X28.5397022333 Y-4.9665012407 Z7.568627451 F100000
G01 X30.276674938 Y-4.9665012407 Z7.568627451 F100000
G01 X30.5248138958 Y-4.9665012407 Z7.4901960784 F100000
G01 X30.7729528536 Y-4.9665012407 Z7.4509803922 F100000
G01 X31.0210918114 Y-4.9665012407 Z7.4509803922 F100000
G01 X31.2692307692 Y-4.9665012407 Z7.6078431373 F100000
G01 X32.0136476427 Y-4.9665012407 Z7.6078431373 F100000
G01 X32.2617866005 Y-4.9665012407 Z7.6862745098 F100000
G01 X33.2543424318 Y-4.9665012407 Z7.6862745098 F100000
G01 X33.5024813896 Y-4.9665012407 Z7.568627451 F100000
G01 X35.2394540943 Y-4.9665012407 Z7.568627451 F100000
G01 X35.4875930521 Y-4.9665012407 Z7.5294117647 F100000
G01 X35.9838709677 Y-4.9665012407 Z7.5294117647 F100000
G01 X36.2320099256 Y-4.9665012407 Z7.568627451 F100000
G01 X36.976426799 Y-4.9665012407 Z7.568627451 F100000
G01 X37.2245657568 Y-4.9665012407 Z7.6078431373 F100000
G01 X37.9689826303 Y-4.9665012407 Z7.6078431373 F100000
G01 X38.2171215881 Y-4.9665012407 Z7.8039215686 F100000
G01 X38.4652605459 Y-4.9665012407 Z7.8431372549 F100000
G01 X39.4578163772 Y-4.9665012407 Z7.8431372549 F100000
G01 X39.705955335 Y-4.9665012407 Z7.6862745098 F100000
G01 X39.9540942928 Y-4.9665012407 Z7.6862745098 F100000
G01 X40.2022332506 Y-4.9665012407 Z7.6470588235 F100000
G01 X40.4503722084 Y-4.9665012407 Z7.6470588235 F100000
G01 X40.6985111663 Y-4.9665012407 Z7.7647058824 F100000
G01 X41.6910669975 Y-4.9665012407 Z7.7647058824 F100000
G01 X41.9392059553 Y-4.9665012407 Z7.6862745098 F100000
G01 X42.1873449132 Y-4.9665012407 Z7.8431372549 F100000
G01 X43.1799007444 Y-4.9665012407 Z7.8431372549 F100000
G01 X43.4280397022 Y-4.9665012407 Z7.7254901961 F100000
G01 X43.67617866 Y-4.9665012407 Z7.8039215686 F100000
G01 X44.6687344913 Y-4.9665012407 Z7.8039215686 F100000
G01 X44.9168734491 Y-4.9665012407 Z7.6862745098 F100000
G01 X45.1650124069 Y-4.9665012407 Z7.6470588235 F100000
G01 X45.4131513648 Y-4.9665012407 Z7.7647058824 F100000
G01 X45.6612903226 Y-4.9665012407 Z7.8039215686 F100000
G01 X45.9094292804 Y-4.9665012407 Z8 F100000
G01 X46.6538461538 Y-4.9665012407 Z8 F100000
G01 X46.9019851117 Y-4.9665012407 Z8.1568627451 F100000
G01 X47.8945409429 Y-4.9665012407 Z8.1568627451 F100000
G01 X48.1426799007 Y-4.9665012407 Z7.8823529412 F100000
G01 X48.3908188586 Y-4.9665012407 Z7.9215686275 F100000
G01 X49.3833746898 Y-4.9665012407 Z7.9215686275 F100000
G01 X49.6315136476 Y-4.9665012407 Z7.8039215686 F100000
G01 X49.8796526055 Y-4.9665012407 Z7.8039215686 F100000
G01 X50.1277915633 Y-4.9665012407 Z7.7647058824 F100000
G01 X50.3759305211 Y-4.9665012407 Z7.8823529412 F100000
G01 X50.6240694789 Y-4.9665012407 Z7.9607843137 F100000
G01 X51.1203473945 Y-4.9665012407 Z7.9607843137 F100000
G01 X51.3684863524 Y-4.9665012407 Z8.1176470588 F100000
G01 X52.3610421836 Y-4.9665012407 Z8.1176470588 F100000
G01 X52.6091811414 Y-4.9665012407 Z8 F100000
G01 X53.3535980149 Y-4.9665012407 Z8 F100000
G01 X53.6017369727 Y-4.9665012407 Z7.9607843137 F100000
G01 X54.3461538462 Y-4.9665012407 Z7.9607843137 F100000
G01 X54.594292804 Y-4.9665012407 Z8.1176470588 F100000
G01 X55.5868486352 Y-4.9665012407 Z8.1176470588 F100000
G01 X55.8349875931 Y-4.9665012407 Z8.0392156863 F100000
G01 X56.0831265509 Y-4.9665012407 Z8.0392156863 F100000
G01 X56.3312655087 Y-4.9665012407 Z8.1176470588 F100000
G01 X57.32382134 Y-4.9665012407 Z8.1176470588 F100000
G01 X57.5719602978 Y-4.9665012407 Z8.2352941176 F100000
G01 X58.564516129 Y-4.9665012407 Z8.2352941176 F100000
G01 X58.8126550868 Y-4.9665012407 Z8.1176470588 F100000
G01 X59.3089330025 Y-4.9665012407 Z8.1176470588 F100000
G01 X59.5570719603 Y-4.9665012407 Z8.1568627451 F100000
G01 X60.0533498759 Y-4.9665012407 Z8.1568627451 F100000
G01 X60.3014888337 Y-4.9665012407 Z8.2352941176 F100000
G01 X61.0459057072 Y-4.9665012407 Z8.2352941176 F100000
G01 X61.294044665 Y-4.9665012407 Z8.3921568627 F100000
G01 X62.7828784119 Y-4.9665012407 Z8.3921568627 F100000
G01 X63.0310173697 Y-4.9665012407 Z8.5882352941 F100000
G01 X64.023573201 Y-4.9665012407 Z8.5882352941 F100000
G01 X64.2717121588 Y-4.9665012407 Z8.4705882353 F100000
G01 X64.5198511166 Y-4.9665012407 Z8.4705882353 F100000
G01 X64.7679900744 Y-4.9665012407 Z8.5098039216 F100000
G01 X65.7605459057 Y-4.9665012407 Z8.5098039216 F100000
G01 X66.0086848635 Y-4.9665012407 Z8.431372549 F100000
G01 X66.2568238213 Y-4.9665012407 Z8.431372549 F100000
G01 X66.5049627792 Y-4.9665012407 Z8.5098039216 F100000
G01 X68.7382133995 Y-4.9665012407 Z8.5098039216 F100000
G01 X68.9863523573 Y-4.9665012407 Z8.5490196078 F100000
G01 X69.2344913151 Y-4.9665012407 Z8.8235294118 F100000
G01 X70.2270471464 Y-4.9665012407 Z8.8235294118 F100000
G01 X70.4751861042 Y-4.9665012407 Z8.5490196078 F100000
G01 X70.723325062 Y-4.9665012407 Z8.5490196078 F100000
G01 X70.9714640199 Y-4.9665012407 Z8.6274509804 F100000
G01 X71.2196029777 Y-4.9665012407 Z8.6666666667 F100000
G01 X72.2121588089 Y-4.9665012407 Z8.6666666667 F100000
G01 X72.4602977667 Y-4.9665012407 Z8.5098039216 F100000
G01 X72.7084367246 Y-4.9665012407 Z8.5098039216 F100000
G01 X72.9565756824 Y-4.9665012407 Z8.3921568627 F100000
G01 X73.2047146402 Y-4.9665012407 Z8.431372549 F100000
G01 X74.1972704715 Y-4.9665012407 Z8.431372549 F100000
G01 X74.4454094293 Y-4.9665012407 Z8.3529411765 F100000
G01 X74.6935483871 Y-4.9665012407 Z8.0392156863 F100000
G01 X74.9416873449 Y-4.9665012407 Z7.4509803922 F100000
G01 X75.1898263027 Y-4.9665012407 Z6.7450980392 F100000
G01 X75.4379652605 Y-4.9665012407 Z5.9607843137 F100000
G01 X75.6861042184 Y-4.9665012407 Z5.3725490196 F100000
G01 X75.9342431762 Y-4.9665012407 Z4.9411764706 F100000
G01 X76.182382134 Y-4.9665012407 Z3.9607843137 F100000
G01 X76.4305210918 Y-4.9665012407 Z3.4509803922 F100000
G01 X77.4230769231 Y-4.9665012407 Z3.4509803922 F100000
G01 X77.6712158809 Y-4.9665012407 Z3.3725490196 F100000
G01 X77.9193548387 Y-4.9665012407 Z3.3725490196 F100000
G01 X78.1674937965 Y-4.9665012407 Z3.3333333333 F100000
G01 X79.1600496278 Y-4.9665012407 Z3.3333333333 F100000
G01 X79.4081885856 Y-4.9665012407 Z3.2549019608 F100000
G01 X79.6563275434 Y-4.9665012407 Z3.2941176471 F100000
G01 X80.1526054591 Y-4.9665012407 Z3.2941176471 F100000
G01 X80.4007444169 Y-4.9665012407 Z3.3333333333 F100000
G01 X80.6488833747 Y-4.9665012407 Z3.4117647059 F100000
G01 X80.8970223325 Y-4.9665012407 Z3.4509803922 F100000
G01 X82.3858560794 Y-4.9665012407 Z3.4509803922 F100000
G01 X82.6339950372 Y-4.9665012407 Z3.5294117647 F100000
G01 X83.6265508685 Y-4.9665012407 Z3.5294117647 F100000
G01 X83.8746898263 Y-4.9665012407 Z3.3725490196 F100000
G01 X84.1228287841 Y-4.9665012407 Z3.3725490196 F100000
G01 X84.3709677419 Y-4.9665012407 Z3.4117647059 F100000
G01 X84.6191066998 Y-4.9665012407 Z3.5294117647 F100000
G01 X85.611662531 Y-4.9665012407 Z3.5294117647 F100000
G01 X85.8598014888 Y-4.9665012407 Z3.4509803922 F100000
G01 X86.3560794045 Y-4.9665012407 Z3.4509803922 F100000
G01 X86.6042183623 Y-4.9665012407 Z3.4901960784 F100000
G01 X87.1004962779 Y-4.9665012407 Z3.4901960784 F100000
G01 X87.3486352357 Y-4.9665012407 Z3.5294117647 F100000
G01 X87.5967741935 Y-4.9665012407 Z3.6078431373 F100000
G01 X88.5893300248 Y-4.9665012407 Z3.6078431373 F100000
G01 X88.8374689826 Y-4.9665012407 Z3.6470588235 F100000
G01 X89.5818858561 Y-4.9665012407 Z3.6470588235 F100000
G01 X89.8300248139 Y-4.9665012407 Z3.6862745098 F100000
G01 X90.8225806452 Y-4.9665012407 Z3.6862745098 F100000
G01 X91.070719603 Y-4.9665012407 Z3.6470588235 F100000
G01 X91.5669975186 Y-4.9665012407 Z3.6470588235 F100000
G01 X91.8151364764 Y-4.9665012407 Z3.6078431373 F100000
G01 X92.0632754342 Y-4.9665012407 Z3.6470588235 F100000
G01 X92.3114143921 Y-4.9665012407 Z3.6470588235 F100000
G01 X92.5595533499 Y-4.9665012407 Z3.7254901961 F100000
G01 X92.8076923077 Y-4.9665012407 Z4 F100000
G01 X93.800248139 Y-4.9665012407 Z4 F100000
G01 X94.0483870968 Y-4.9665012407 Z3.9607843137 F100000
G01 X94.5446650124 Y-4.9665012407 Z3.9607843137 F100000
G01 X94.7928039702 Y-4.9665012407 Z4.5882352941 F100000
G01 X95.040942928 Y-4.9665012407 Z5.2941176471 F100000
G01 X95.2890818859 Y-4.9665012407 Z6.5490196078 F100000
G01 X95.5372208437 Y-4.9665012407 Z7.4117647059 F100000
G01 X95.7853598015 Y-4.9665012407 Z7.6078431373 F100000
G01 X96.0334987593 Y-4.9665012407 Z7.8039215686 F100000
G01 X96.2816377171 Y-4.9665012407 Z7.9607843137 F100000
G01 X97.2741935484 Y-4.9665012407 Z7.9607843137 F100000
G01 X97.5223325062 Y-4.9665012407 Z7.7254901961 F100000
G01 X98.5148883375 Y-4.9665012407 Z7.7254901961 F100000
G01 X98.7630272953 Y-4.9665012407 Z7.6470588235 F100000
G01 X99.5074441687 Y-4.9665012407 Z7.6470588235 F100000
G01 X99.5074441687 Y-5.2146401985 Z7.6470588235 F100000
G01 X99.5074441687 Y-5.4627791563 Z7.6470588235 F100000
G01 X99.5074441687 Y-5.7109181141 Z7.6470588235 F100000
G01 X98.5148883375 Y-5.7109181141 Z7.6470588235 F100000
G01 X98.2667493797 Y-5.7109181141 Z7.6078431373 F100000
G01 X98.0186104218 Y-5.7109181141 Z7.6078431373 F100000
G01 X97.770471464 Y-5.7109181141 Z7.568627451 F100000
G01 X97.5223325062 Y-5.7109181141 Z7.5294117647 F100000
G01 X97.2741935484 Y-5.7109181141 Z7.5294117647 F100000
G01 X97.0260545906 Y-5.7109181141 Z7.4901960784 F100000
G01 X96.7779156328 Y-5.7109181141 Z7.3725490196 F100000
G01 X96.5297766749 Y-5.7109181141 Z6.7843137255 F100000
G01 X96.2816377171 Y-5.7109181141 Z5.9215686275 F100000
G01 X96.0334987593 Y-5.7109181141 Z4.862745098 F100000
G01 X95.7853598015 Y-5.7109181141 Z4.0784313725 F100000
G01 X95.5372208437 Y-5.7109181141 Z3.9607843137 F100000
G01 X95.040942928 Y-5.7109181141 Z3.9607843137 F100000
G01 X94.7928039702 Y-5.7109181141 Z4.0392156863 F100000
G01 X93.800248139 Y-5.7109181141 Z4.0392156863 F100000
G01 X93.5521091811 Y-5.7109181141 Z4 F100000
G01 X92.8076923077 Y-5.7109181141 Z4 F100000
G01 X92.5595533499 Y-5.7109181141 Z3.7254901961 F100000
G01 X92.3114143921 Y-5.7109181141 Z3.6470588235 F100000
G01 X92.0632754342 Y-5.7109181141 Z3.6078431373 F100000
G01 X91.8151364764 Y-5.7109181141 Z3.568627451 F100000
G01 X91.5669975186 Y-5.7109181141 Z3.6470588235 F100000
G01 X89.3337468983 Y-5.7109181141 Z3.6470588235 F100000
G01 X89.0856079404 Y-5.7109181141 Z3.5294117647 F100000
G01 X87.3486352357 Y-5.7109181141 Z3.5294117647 F100000
G01 X87.1004962779 Y-5.7109181141 Z3.4901960784 F100000
G01 X86.6042183623 Y-5.7109181141 Z3.4901960784 F100000
G01 X86.3560794045 Y-5.7109181141 Z3.4117647059 F100000
G01 X86.1079404467 Y-5.7109181141 Z3.3333333333 F100000
G01 X85.8598014888 Y-5.7109181141 Z3.3725490196 F100000
G01 X84.8672456576 Y-5.7109181141 Z3.3725490196 F100000
G01 X84.6191066998 Y-5.7109181141 Z3.3333333333 F100000
G01 X83.6265508685 Y-5.7109181141 Z3.3333333333 F100000
G01 X83.3784119107 Y-5.7109181141 Z3.3725490196 F100000
G01 X83.1302729529 Y-5.7109181141 Z3.4509803922 F100000
G01 X82.1377171216 Y-5.7109181141 Z3.4509803922 F100000
G01 X81.8895781638 Y-5.7109181141 Z3.2941176471 F100000
G01 X81.1451612903 Y-5.7109181141 Z3.2941176471 F100000
G01 X80.8970223325 Y-5.7109181141 Z3.2549019608 F100000
G01 X80.6488833747 Y-5.7109181141 Z3.2549019608 F100000
G01 X80.4007444169 Y-5.7109181141 Z3.2156862745 F100000
G01 X79.4081885856 Y-5.7109181141 Z3.2156862745 F100000
G01 X79.1600496278 Y-5.7109181141 Z3.2549019608 F100000
G01 X78.91191067 Y-5.7109181141 Z3.2941176471 F100000
G01 X77.6712158809 Y-5.7109181141 Z3.2941176471 F100000
G01 X77.4230769231 Y-5.7109181141 Z3.4509803922 F100000
G01 X75.1898263027 Y-5.7109181141 Z3.4509803922 F100000
G01 X74.9416873449 Y-5.7109181141 Z3.568627451 F100000
G01 X74.6935483871 Y-5.7109181141 Z3.7647058824 F100000
G01 X74.4454094293 Y-5.7109181141 Z4.1960784314 F100000
G01 X74.1972704715 Y-5.7109181141 Z5.3725490196 F100000
G01 X73.9491315136 Y-5.7109181141 Z6.6666666667 F100000
G01 X73.7009925558 Y-5.7109181141 Z7.2156862745 F100000
G01 X73.452853598 Y-5.7109181141 Z7.4901960784 F100000
G01 X73.2047146402 Y-5.7109181141 Z7.6470588235 F100000
G01 X72.9565756824 Y-5.7109181141 Z8 F100000
G01 X72.7084367246 Y-5.7109181141 Z8.1960784314 F100000
G01 X71.9640198511 Y-5.7109181141 Z8.1960784314 F100000
G01 X71.7158808933 Y-5.7109181141 Z8.3529411765 F100000
G01 X70.723325062 Y-5.7109181141 Z8.3529411765 F100000
G01 X70.4751861042 Y-5.7109181141 Z8.3137254902 F100000
G01 X70.2270471464 Y-5.7109181141 Z8.3529411765 F100000
G01 X69.9789081886 Y-5.7109181141 Z8.5098039216 F100000
G01 X69.482630273 Y-5.7109181141 Z8.5098039216 F100000
G01 X69.2344913151 Y-5.7109181141 Z8.6666666667 F100000
G01 X68.9863523573 Y-5.7109181141 Z8.9411764706 F100000
G01 X67.9937965261 Y-5.7109181141 Z8.9411764706 F100000
G01 X67.7456575682 Y-5.7109181141 Z8.6666666667 F100000
G01 X67.0012406948 Y-5.7109181141 Z8.6666666667 F100000
G01 X66.753101737 Y-5.7109181141 Z8.5098039216 F100000
G01 X66.5049627792 Y-5.7109181141 Z8.431372549 F100000
G01 X66.0086848635 Y-5.7109181141 Z8.431372549 F100000
G01 X65.7605459057 Y-5.7109181141 Z8.3529411765 F100000
G01 X65.5124069479 Y-5.7109181141 Z8.3921568627 F100000
G01 X65.0161290323 Y-5.7109181141 Z8.3921568627 F100000
G01 X64.7679900744 Y-5.7109181141 Z8.4705882353 F100000
G01 X64.2717121588 Y-5.7109181141 Z8.4705882353 F100000
G01 X64.023573201 Y-5.7109181141 Z8.5882352941 F100000
G01 X63.0310173697 Y-5.7109181141 Z8.5882352941 F100000
G01 X62.7828784119 Y-5.7109181141 Z8.3529411765 F100000
G01 X62.2866004963 Y-5.7109181141 Z8.3529411765 F100000
G01 X62.0384615385 Y-5.7109181141 Z8.3137254902 F100000
G01 X61.7903225806 Y-5.7109181141 Z8.1960784314 F100000
G01 X61.5421836228 Y-5.7109181141 Z8.1960784314 F100000
G01 X61.294044665 Y-5.7109181141 Z8.2352941176 F100000
G01 X60.3014888337 Y-5.7109181141 Z8.2352941176 F100000
G01 X60.0533498759 Y-5.7109181141 Z8.1960784314 F100000
G01 X59.0607940447 Y-5.7109181141 Z8.1960784314 F100000
G01 X58.8126550868 Y-5.7109181141 Z8.1176470588 F100000
G01 X58.3163771712 Y-5.7109181141 Z8.1176470588 F100000
G01 X58.0682382134 Y-5.7109181141 Z8.0392156863 F100000
G01 X57.8200992556 Y-5.7109181141 Z8.0784313725 F100000
G01 X57.5719602978 Y-5.7109181141 Z8.3529411765 F100000
G01 X56.5794044665 Y-5.7109181141 Z8.3529411765 F100000
G01 X56.3312655087 Y-5.7109181141 Z8.0392156863 F100000
G01 X56.0831265509 Y-5.7109181141 Z8.0784313725 F100000
G01 X55.0905707196 Y-5.7109181141 Z8.0784313725 F100000
G01 X54.8424317618 Y-5.7109181141 Z8.0392156863 F100000
G01 X54.594292804 Y-5.7109181141 Z7.9215686275 F100000
G01 X54.3461538462 Y-5.7109181141 Z7.9215686275 F100000
G01 X54.0980148883 Y-5.7109181141 Z7.9607843137 F100000
G01 X53.8498759305 Y-5.7109181141 Z7.9607843137 F100000
G01 X53.6017369727 Y-5.7109181141 Z8.0392156863 F100000
G01 X52.6091811414 Y-5.7109181141 Z8.0392156863 F100000
G01 X52.3610421836 Y-5.7109181141 Z7.8431372549 F100000
G01 X50.8722084367 Y-5.7109181141 Z7.8431372549 F100000
G01 X50.6240694789 Y-5.7109181141 Z7.7647058824 F100000
G01 X50.3759305211 Y-5.7109181141 Z7.7647058824 F100000
G01 X50.1277915633 Y-5.7109181141 Z7.6862745098 F100000
G01 X49.6315136476 Y-5.7109181141 Z7.6862745098 F100000
G01 X49.3833746898 Y-5.7109181141 Z7.9215686275 F100000
G01 X48.3908188586 Y-5.7109181141 Z7.9215686275 F100000
G01 X48.1426799007 Y-5.7109181141 Z7.8823529412 F100000
G01 X47.8945409429 Y-5.7109181141 Z7.8823529412 F100000
G01 X47.6464019851 Y-5.7109181141 Z7.8431372549 F100000
G01 X46.9019851117 Y-5.7109181141 Z7.8431372549 F100000
G01 X46.6538461538 Y-5.7109181141 Z7.8039215686 F100000
G01 X46.405707196 Y-5.7109181141 Z7.8039215686 F100000
G01 X46.1575682382 Y-5.7109181141 Z7.7647058824 F100000
G01 X45.4131513648 Y-5.7109181141 Z7.7647058824 F100000
G01 X45.1650124069 Y-5.7109181141 Z7.6470588235 F100000
G01 X43.4280397022 Y-5.7109181141 Z7.6470588235 F100000
G01 X43.1799007444 Y-5.7109181141 Z7.8431372549 F100000
G01 X41.1947890819 Y-5.7109181141 Z7.8431372549 F100000
G01 X40.9466501241 Y-5.7109181141 Z7.7647058824 F100000
G01 X40.6985111663 Y-5.7109181141 Z7.6078431373 F100000
G01 X40.2022332506 Y-5.7109181141 Z7.6078431373 F100000
G01 X39.9540942928 Y-5.7109181141 Z7.5294117647 F100000
G01 X39.705955335 Y-5.7109181141 Z7.6470588235 F100000
G01 X39.2096774194 Y-5.7109181141 Z7.6470588235 F100000
G01 X38.9615384615 Y-5.7109181141 Z7.6862745098 F100000
G01 X37.9689826303 Y-5.7109181141 Z7.6862745098 F100000
G01 X37.7208436725 Y-5.7109181141 Z7.6078431373 F100000
G01 X37.2245657568 Y-5.7109181141 Z7.6078431373 F100000
G01 X36.976426799 Y-5.7109181141 Z7.5294117647 F100000
G01 X36.4801488834 Y-5.7109181141 Z7.5294117647 F100000
G01 X36.2320099256 Y-5.7109181141 Z7.568627451 F100000
G01 X35.9838709677 Y-5.7109181141 Z7.7254901961 F100000
G01 X34.9913151365 Y-5.7109181141 Z7.7254901961 F100000
G01 X34.7431761787 Y-5.7109181141 Z7.568627451 F100000
G01 X34.246898263 Y-5.7109181141 Z7.568627451 F100000
G01 X33.9987593052 Y-5.7109181141 Z7.5294117647 F100000
G01 X33.7506203474 Y-5.7109181141 Z7.568627451 F100000
G01 X32.7580645161 Y-5.7109181141 Z7.568627451 F100000
G01 X32.5099255583 Y-5.7109181141 Z7.5294117647 F100000
G01 X32.2617866005 Y-5.7109181141 Z7.7254901961 F100000
G01 X31.0210918114 Y-5.7109181141 Z7.7254901961 F100000
G01 X30.7729528536 Y-5.7109181141 Z7.4901960784 F100000
G01 X30.5248138958 Y-5.7109181141 Z7.5294117647 F100000
G01 X30.276674938 Y-5.7109181141 Z7.568627451 F100000
G01 X29.2841191067 Y-5.7109181141 Z7.568627451 F100000
G01 X29.0359801489 Y-5.7109181141 Z7.7647058824 F100000
G01 X28.2915632754 Y-5.7109181141 Z7.7647058824 F100000
G01 X28.0434243176 Y-5.7109181141 Z7.8039215686 F100000
G01 X27.0508684864 Y-5.7109181141 Z7.8039215686 F100000
G01 X26.8027295285 Y-5.7109181141 Z7.7647058824 F100000
G01 X26.0583126551 Y-5.7109181141 Z7.7647058824 F100000
G01 X25.8101736973 Y-5.7109181141 Z7.6470588235 F100000
G01 X25.5620347395 Y-5.7109181141 Z7.7254901961 F100000
G01 X24.5694789082 Y-5.7109181141 Z7.7254901961 F100000
G01 X24.3213399504 Y-5.7109181141 Z7.4117647059 F100000
G01 X24.0732009926 Y-5.7109181141 Z7.4509803922 F100000
G01 X23.8250620347 Y-5.7109181141 Z7.5294117647 F100000
G01 X22.8325062035 Y-5.7109181141 Z7.5294117647 F100000
G01 X22.5843672457 Y-5.7109181141 Z7.4509803922 F100000
G01 X22.3362282878 Y-5.7109181141 Z7.4509803922 F100000
G01 X22.08808933 Y-5.7109181141 Z7.6862745098 F100000
G01 X21.3436724566 Y-5.7109181141 Z7.6862745098 F100000
G01 X21.0955334988 Y-5.7109181141 Z7.7254901961 F100000
G01 X20.1029776675 Y-5.7109181141 Z7.7254901961 F100000
G01 X19.8548387097 Y-5.7109181141 Z7.568627451 F100000
G01 X18.8622828784 Y-5.7109181141 Z7.568627451 F100000
G01 X18.6141439206 Y-5.7109181141 Z7.6862745098 F100000
G01 X17.6215880893 Y-5.7109181141 Z7.6862745098 F100000
G01 X17.3734491315 Y-5.7109181141 Z7.6470588235 F100000
G01 X17.1253101737 Y-5.7109181141 Z7.5294117647 F100000
G01 X16.1327543424 Y-5.7109181141 Z7.5294117647 F100000
G01 X15.8846153846 Y-5.7109181141 Z7.6470588235 F100000
G01 X14.8920595533 Y-5.7109181141 Z7.6470588235 F100000
G01 X14.6439205955 Y-5.7109181141 Z7.3725490196 F100000
G01 X14.3957816377 Y-5.7109181141 Z7.7254901961 F100000
G01 X13.4032258065 Y-5.7109181141 Z7.7254901961 F100000
G01 X13.1550868486 Y-5.7109181141 Z7.3333333333 F100000
G01 X12.658808933 Y-5.7109181141 Z7.3333333333 F100000
G01 X12.4106699752 Y-5.7109181141 Z7.2549019608 F100000
G01 X12.1625310174 Y-5.7109181141 Z7.137254902 F100000
G01 X11.9143920596 Y-5.7109181141 Z7.137254902 F100000
G01 X11.6662531017 Y-5.7109181141 Z7.3333333333 F100000
G01 X10.9218362283 Y-5.7109181141 Z7.3333333333 F100000
G01 X10.6736972705 Y-5.7109181141 Z7.3725490196 F100000
G01 X9.6811414392 Y-5.7109181141 Z7.3725490196 F100000
G01 X9.4330024814 Y-5.7109181141 Z7.3333333333 F100000
G01 X9.1848635236 Y-5.7109181141 Z7.2941176471 F100000
G01 X8.9367245658 Y-5.7109181141 Z7.4901960784 F100000
G01 X7.9441687345 Y-5.7109181141 Z7.4901960784 F100000
G01 X7.6960297767 Y-5.7109181141 Z7.2549019608 F100000
G01 X7.199751861 Y-5.7109181141 Z7.2549019608 F100000
G01 X6.9516129032 Y-5.7109181141 Z7.0588235294 F100000
G01 X6.7034739454 Y-5.7109181141 Z7.2549019608 F100000
G01 X5.7109181141 Y-5.7109181141 Z7.2549019608 F100000
G01 X5.4627791563 Y-5.7109181141 Z7.0980392157 F100000
G01 X4.7183622829 Y-5.7109181141 Z7.0980392157 F100000
G01 X4.4702233251 Y-5.7109181141 Z6.9019607843 F100000
G01 X4.2220843672 Y-5.7109181141 Z6.9019607843 F100000
G01 X3.9739454094 Y-5.7109181141 Z7.0980392157 F100000
G01 X2.9813895782 Y-5.7109181141 Z7.0980392157 F100000
G01 X2.7332506203 Y-5.7109181141 Z7.3333333333 F100000
G01 X1.7406947891 Y-5.7109181141 Z7.3333333333 F100000
G01 X1.4925558313 Y-5.7109181141 Z7.2156862745 F100000
G01 X1.2444168734 Y-5.7109181141 Z7.137254902 F100000
G01 X0.9962779156 Y-5.7109181141 Z7.137254902 F100000
G01 X0.7481389578 Y-5.7109181141 Z7.4117647059 F100000
G01 X0.5 Y-5.7109181141 Z7.4117647059 F100000
G01 X0.5 Y-5.959057072 Z7.4117647059 F100000
G01 X0.5 Y-6.2071960298 Z7.2156862745 F100000
G01 X0.5 Y-6.4553349876 Z7.2156862745 F100000
G01 X0.7481389578 Y-6.4553349876 Z7.2156862745 F100000
G01 X0.9962779156 Y-6.4553349876 Z6.9803921569 F100000
G01 X1.9888337469 Y-6.4553349876 Z6.9803921569 F100000
G01 X2.2369727047 Y-6.4553349876 Z7.0980392157 F100000
G01 X3.229528536 Y-6.4553349876 Z7.0980392157 F100000
G01 X3.4776674938 Y-6.4553349876 Z7.0196078431 F100000
G01 X3.7258064516 Y-6.4553349876 Z7.0980392157 F100000
G01 X4.7183622829 Y-6.4553349876 Z7.0980392157 F100000
G01 X4.9665012407 Y-6.4553349876 Z7.0588235294 F100000
G01 X5.2146401985 Y-6.4553349876 Z6.9803921569 F100000
G01 X5.4627791563 Y-6.4553349876 Z6.9803921569 F100000
G01 X5.7109181141 Y-6.4553349876 Z7.0980392157 F100000
G01 X6.7034739454 Y-6.4553349876 Z7.0980392157 F100000
G01 X6.9516129032 Y-6.4553349876 Z7.0588235294 F100000
G01 X7.199751861 Y-6.4553349876 Z7.2549019608 F100000
G01 X8.1923076923 Y-6.4553349876 Z7.2549019608 F100000
G01 X8.4404466501 Y-6.4553349876 Z7.137254902 F100000
G01 X8.9367245658 Y-6.4553349876 Z7.137254902 F100000
G01 X9.1848635236 Y-6.4553349876 Z7.2941176471 F100000
G01 X10.1774193548 Y-6.4553349876 Z7.2941176471 F100000
G01 X10.4255583127 Y-6.4553349876 Z7.0980392157 F100000
G01 X10.6736972705 Y-6.4553349876 Z7.2156862745 F100000
G01 X10.9218362283 Y-6.4553349876 Z7.2941176471 F100000
G01 X11.9143920596 Y-6.4553349876 Z7.2941176471 F100000
G01 X12.1625310174 Y-6.4553349876 Z7.137254902 F100000
G01 X12.4106699752 Y-6.4553349876 Z7.137254902 F100000
G01 X12.658808933 Y-6.4553349876 Z7.2156862745 F100000
G01 X13.6513647643 Y-6.4553349876 Z7.2156862745 F100000
G01 X13.8995037221 Y-6.4553349876 Z7.137254902 F100000
G01 X14.1476426799 Y-6.4553349876 Z7.2156862745 F100000
G01 X14.8920595533 Y-6.4553349876 Z7.2156862745 F100000
G01 X15.1401985112 Y-6.4553349876 Z7.5294117647 F100000
G01 X16.1327543424 Y-6.4553349876 Z7.5294117647 F100000
G01 X16.3808933002 Y-6.4553349876 Z7.4901960784 F100000
G01 X16.8771712159 Y-6.4553349876 Z7.4901960784 F100000
G01 X17.1253101737 Y-6.4553349876 Z7.3333333333 F100000
G01 X17.3734491315 Y-6.4553349876 Z7.568627451 F100000
G01 X17.6215880893 Y-6.4553349876 Z7.6470588235 F100000
G01 X18.6141439206 Y-6.4553349876 Z7.6470588235 F100000
G01 X18.8622828784 Y-6.4553349876 Z7.568627451 F100000
G01 X19.8548387097 Y-6.4553349876 Z7.568627451 F100000
G01 X20.1029776675 Y-6.4553349876 Z7.4901960784 F100000
G01 X21.5918114144 Y-6.4553349876 Z7.4901960784 F100000
G01 X21.8399503722 Y-6.4553349876 Z7.4509803922 F100000
G01 X22.5843672457 Y-6.4553349876 Z7.4509803922 F100000
G01 X22.8325062035 Y-6.4553349876 Z7.3725490196 F100000
G01 X23.0806451613 Y-6.4553349876 Z7.3725490196 F100000
G01 X23.3287841191 Y-6.4553349876 Z7.3333333333 F100000
G01 X23.5769230769 Y-6.4553349876 Z7.3333333333 F100000
G01 X23.8250620347 Y-6.4553349876 Z7.2941176471 F100000
G01 X24.5694789082 Y-6.4553349876 Z7.2941176471 F100000
G01 X24.817617866 Y-6.4553349876 Z7.6470588235 F100000
G01 X26.0583126551 Y-6.4553349876 Z7.6470588235 F100000
G01 X26.3064516129 Y-6.4553349876 Z7.4117647059 F100000
G01 X26.5545905707 Y-6.4553349876 Z7.4901960784 F100000
G01 X26.8027295285 Y-6.4553349876 Z8.3137254902 F100000
G01 X27.7952853598 Y-6.4553349876 Z8.3137254902 F100000
G01 X28.0434243176 Y-6.4553349876 Z7.7647058824 F100000
G01 X29.0359801489 Y-6.4553349876 Z7.7647058824 F100000
G01 X29.2841191067 Y-6.4553349876 Z7.4117647059 F100000
G01 X30.276674938 Y-6.4553349876 Z7.4117647059 F100000
G01 X30.5248138958 Y-6.4553349876 Z7.568627451 F100000
G01 X31.0210918114 Y-6.4553349876 Z7.568627451 F100000
G01 X31.2692307692 Y-6.4553349876 Z7.7254901961 F100000
G01 X32.2617866005 Y-6.4553349876 Z7.7254901961 F100000
G01 X32.5099255583 Y-6.4553349876 Z7.4509803922 F100000
G01 X33.2543424318 Y-6.4553349876 Z7.4509803922 F100000
G01 X33.5024813896 Y-6.4553349876 Z7.5294117647 F100000
G01 X34.7431761787 Y-6.4553349876 Z7.5294117647 F100000
G01 X34.9913151365 Y-6.4553349876 Z7.7254901961 F100000
G01 X35.9838709677 Y-6.4553349876 Z7.7254901961 F100000
G01 X36.2320099256 Y-6.4553349876 Z7.4509803922 F100000
G01 X36.4801488834 Y-6.4553349876 Z7.4509803922 F100000
G01 X36.7282878412 Y-6.4553349876 Z7.6078431373 F100000
G01 X37.7208436725 Y-6.4553349876 Z7.6078431373 F100000
G01 X37.9689826303 Y-6.4553349876 Z7.5294117647 F100000
G01 X38.4652605459 Y-6.4553349876 Z7.5294117647 F100000
G01 X38.7133995037 Y-6.4553349876 Z7.6078431373 F100000
G01 X39.705955335 Y-6.4553349876 Z7.6078431373 F100000
G01 X39.9540942928 Y-6.4553349876 Z7.5294117647 F100000
G01 X40.9466501241 Y-6.4553349876 Z7.5294117647 F100000
G01 X41.1947890819 Y-6.4553349876 Z7.6470588235 F100000
G01 X41.4429280397 Y-6.4553349876 Z7.6862745098 F100000
G01 X42.435483871 Y-6.4553349876 Z7.6862745098 F100000
G01 X42.6836228288 Y-6.4553349876 Z7.6470588235 F100000
G01 X43.67617866 Y-6.4553349876 Z7.6470588235 F100000
G01 X43.9243176179 Y-6.4553349876 Z7.7254901961 F100000
G01 X44.9168734491 Y-6.4553349876 Z7.7254901961 F100000
G01 X45.1650124069 Y-6.4553349876 Z7.6862745098 F100000
G01 X45.4131513648 Y-6.4553349876 Z7.6470588235 F100000
G01 X45.6612903226 Y-6.4553349876 Z7.6470588235 F100000
G01 X45.9094292804 Y-6.4553349876 Z7.6862745098 F100000
G01 X46.1575682382 Y-6.4553349876 Z7.6862745098 F100000
G01 X46.405707196 Y-6.4553349876 Z7.8039215686 F100000
G01 X47.3982630273 Y-6.4553349876 Z7.8039215686 F100000
G01 X47.6464019851 Y-6.4553349876 Z7.6862745098 F100000
G01 X47.8945409429 Y-6.4553349876 Z7.7254901961 F100000
G01 X48.1426799007 Y-6.4553349876 Z7.8039215686 F100000
G01 X49.135235732 Y-6.4553349876 Z7.8039215686 F100000
G01 X49.3833746898 Y-6.4553349876 Z7.7647058824 F100000
